%
(Header)
(Generated by gcodetools from Inkscape.)
(Using default header. To add your own header create file "header" in the output dir.)
M3
(Header end.)
G21 (All units in mm)

(Start cutting path id: path555)
(Change tool to Cylindrical cutter)

G00 Z5.000000
G00 X48.262530 Y0.205850

G01 Z-0.125000 F100.0(Penetrate)
G02 X45.369182 Y1.657361 Z-0.125000 I2.168914 J7.932838 F400.000000
G02 X43.410303 Y3.995700 Z-0.125000 I4.495407 J5.755570
G02 X42.163582 Y9.039754 Z-0.125000 I9.479992 J5.019238
G02 X43.433903 Y14.199910 Z-0.125000 I11.221115 J-0.025961
G02 X44.001356 Y15.060505 Z-0.125000 I4.466876 J-2.327958
G02 X45.007993 Y16.124960 Z-0.125000 I7.877586 J-6.441491
G02 X51.143103 Y18.330314 Z-0.125000 I5.703669 J-6.230772
G02 X56.553760 Y15.534500 Z-0.125000 I-0.376513 J-7.362105
G02 X57.703439 Y13.424899 Z-0.125000 I-5.605597 J-4.422982
G02 X57.942940 Y11.477970 Z-0.125000 I-4.503245 J-1.542161
G01 X57.873340 Y10.662350 Z-0.125000
G01 X55.340410 Y10.662350 Z-0.125000
G01 X52.807490 Y10.662350 Z-0.125000
G01 X52.679150 Y11.406250 Z-0.125000
G03 X51.814474 Y12.940405 Z-0.125000 I-2.584395 J-0.445859
G03 X50.232010 Y13.531680 Z-0.125000 I-1.582464 J-1.821983
G03 X49.027099 Y13.052111 Z-0.125000 I0.000000 J-1.753447
G03 X48.079570 Y11.495770 Z-0.125000 I2.378590 J-2.514735
G03 X47.718067 Y8.961740 Z-0.125000 I8.886204 J-2.560502
G03 X48.065270 Y6.478290 Z-0.125000 I8.873633 J-0.025401
G03 X50.450229 Y4.543513 Z-0.125000 I2.580728 J0.743877
G03 X52.579000 Y6.148410 Z-0.125000 I0.147528 J2.018588
G02 X53.296538 Y7.071709 Z-0.125000 I1.302860 J-0.272047
G02 X55.408970 Y7.534150 Z-0.125000 I2.001750 J-4.087979
G01 X57.873380 Y7.474250 Z-0.125000
G01 X57.854180 Y6.198990 Z-0.125000
G02 X55.978329 Y2.080434 Z-0.125000 I-5.645530 J0.084862
G02 X50.957920 Y0.014310 Z-0.125000 I-5.424766 J6.048940
G02 X49.281845 Y0.032026 Z-0.125000 I-0.691481 J13.873984
G02 X48.262560 Y0.205890 Z-0.125000 I0.374488 J5.270194
G01 X48.262530 Y0.205850 Z-0.125000
G00 Z5.000000

(End cutting path id: path555)


(Start cutting path id: path555)
(Change tool to Cylindrical cutter)

G00 Z5.000000
G00 X48.133850 Y1.069880

G01 Z-0.125000 F100.0(Penetrate)
G02 X45.710481 Y2.501010 Z-0.125000 I1.886883 J5.962449 F400.000000
G02 X43.893613 Y5.103240 Z-0.125000 I5.481236 J5.762361
G02 X43.514383 Y6.450057 Z-0.125000 I4.799676 J2.078269
G02 X43.333613 Y9.068280 Z-0.125000 I18.219735 J2.573296
G02 X43.510919 Y11.691342 Z-0.125000 I20.283096 J-0.053517
G02 X43.856193 Y12.989570 Z-0.125000 I5.232356 J-0.696556
G02 X45.344669 Y15.279463 Z-0.125000 I6.733607 J-2.748261
G02 X47.458930 Y16.740310 Z-0.125000 I4.643887 J-4.460636
G02 X50.483534 Y17.357537 Z-0.125000 I3.015983 J-7.059888
G02 X53.525190 Y16.733310 Z-0.125000 I-0.008720 J-7.765104
G02 X56.205994 Y14.615036 Z-0.125000 I-2.560301 J-5.995713
G02 X57.101300 Y11.899500 Z-0.125000 I-3.670569 J-2.715536
G02 X56.889067 Y11.618248 Z-0.125000 I-0.292475 J0.000000
G02 X55.371580 Y11.406010 Z-0.125000 I-1.517487 J5.318851
G01 X53.641860 Y11.406010 Z-0.125000
G01 X53.391280 Y12.211870 Z-0.125000
G03 X52.401480 Y13.666046 Z-0.125000 I-2.877687 J-0.894781
G03 X50.769950 Y14.318660 Z-0.125000 I-1.883880 J-2.343972
G03 X48.975446 Y13.954754 Z-0.125000 I-0.274104 J-3.254839
G03 X47.616370 Y12.660130 Z-0.125000 I1.597709 J-3.037930
G03 X47.263530 Y11.670635 Z-0.125000 I2.393329 J-1.411084
G03 X47.064920 Y9.068040 Z-0.125000 I16.952953 J-2.602595
G03 X47.235716 Y6.454533 Z-0.125000 I20.081194 J-0.000000
G03 X47.525270 Y5.561090 Z-0.125000 I2.560067 J0.336043
G03 X48.786430 Y4.228415 Z-0.125000 I3.119813 J1.689315
G03 X50.461380 Y3.755270 Z-0.125000 I1.672435 J2.719218
G03 X52.207738 Y4.289926 Z-0.125000 I-0.002126 J3.126354
G03 X53.279890 Y5.656590 Z-0.125000 I-1.582060 J2.345016
G01 X53.675570 Y6.730070 Z-0.125000
G01 X55.388440 Y6.730070 Z-0.125000
G02 X56.878712 Y6.507456 Z-0.125000 I-0.000000 J-5.099560
G02 X57.101300 Y6.206690 Z-0.125000 I-0.091907 J-0.300766
G02 X57.034190 Y5.695867 Z-0.125000 I-1.977667 J0.000000
G02 X56.651990 Y4.526180 Z-0.125000 I-10.899778 J2.914257
G02 X55.387656 Y2.587641 Z-0.125000 I-5.234845 J2.032643
G02 X53.393270 Y1.268010 Z-0.125000 I-4.239240 J4.239956
G02 X50.788114 Y0.710745 Z-0.125000 I-2.896736 J7.173890
G02 X48.133850 Y1.069640 Z-0.125000 I-0.294732 J7.814728
G01 X48.133850 Y1.069880 Z-0.125000
G00 Z5.000000

(End cutting path id: path555)


(Start cutting path id: path555)
(Change tool to Cylindrical cutter)

G00 Z5.000000
G00 X52.834150 Y0.883290

G01 Z-0.125000 F100.0(Penetrate)
G03 X54.936263 Y1.906442 Z-0.125000 I-1.854685 J6.481555 F400.000000
G03 X56.329470 Y3.417050 Z-0.125000 I-3.057121 J4.217298
G03 X56.867867 Y4.531657 Z-0.125000 I-5.491574 J3.339976
G03 X57.414960 Y6.358360 Z-0.125000 I-14.309396 J5.280902
G01 X57.550860 Y6.942850 Z-0.125000
G01 X55.496900 Y6.942850 Z-0.125000
G01 X53.442940 Y6.942850 Z-0.125000
G01 X53.191480 Y6.036920 Z-0.125000
G02 X52.296744 Y4.658199 Z-0.125000 I-2.637856 J0.732181
G02 X50.748220 Y4.019330 Z-0.125000 I-1.810703 J2.192744
G02 X48.990287 Y4.352616 Z-0.125000 I-0.298765 J3.226947
G02 X47.786990 Y5.512570 Z-0.125000 I1.273212 J2.524893
G02 X47.470032 Y6.457536 Z-0.125000 I2.436380 J1.342844
G02 X47.288520 Y8.962010 Z-0.125000 I17.475632 J2.525360
G02 X47.448657 Y11.472229 Z-0.125000 I19.328489 J0.027175
G02 X47.726660 Y12.348980 Z-0.125000 I2.572463 J-0.333234
G02 X48.902919 Y13.611670 Z-0.125000 I2.917914 J-1.538966
G02 X50.483910 Y14.063030 Z-0.125000 I1.580991 J-2.543209
G02 X52.133406 Y13.535016 Z-0.125000 I0.000000 J-2.840492
G02 X53.114610 Y12.186540 Z-0.125000 I-1.529337 J-2.144024
G01 X53.429220 Y11.193710 Z-0.125000
G01 X55.455730 Y11.193710 Z-0.125000
G01 X57.482230 Y11.193710 Z-0.125000
G01 X57.273770 Y12.298890 Z-0.125000
G03 X56.025744 Y15.012259 Z-0.125000 I-6.058115 J-1.142754
G03 X53.573370 Y16.914720 Z-0.125000 I-5.194823 J-4.164554
G03 X50.480720 Y17.580872 Z-0.125000 I-3.090976 J-6.838054
G03 X47.395790 Y16.913720 Z-0.125000 I0.001667 J-7.473686
G03 X46.218596 Y16.305144 Z-0.125000 I5.357135 J-11.805372
G03 X45.502490 Y15.808790 Z-0.125000 I2.824020 J-4.839054
G03 X44.172478 Y14.187053 Z-0.125000 I3.335537 J-4.091777
G03 X43.192733 Y11.445970 Z-0.125000 I8.986711 J-4.757754
G03 X42.940820 Y8.046870 Z-0.125000 I13.325845 J-2.696485
G03 X43.511083 Y5.293840 Z-0.125000 I9.238385 J0.478063
G03 X44.565162 Y3.339431 Z-0.125000 I7.572354 J2.822575
G03 X45.986260 Y1.916400 Z-0.125000 I5.346882 J3.918517
G03 X49.074101 Y0.640878 Z-0.125000 I4.126902 J5.615237
G03 X52.834150 Y0.883810 Z-0.125000 I1.321607 J8.764533
G01 X52.834150 Y0.883290 Z-0.125000
G00 Z5.000000

(End cutting path id: path555)


(Start cutting path id: path555)
(Change tool to Cylindrical cutter)

G00 Z5.000000
G00 X53.461730 Y1.998210

G01 Z-0.125000 F100.0(Penetrate)
G03 X54.923589 Y3.072190 Z-0.125000 I-2.417727 J4.822819 F400.000000
G03 X55.980550 Y4.604880 Z-0.125000 I-4.086892 J3.949159
G03 X55.972693 Y5.643815 Z-0.125000 I-1.088302 J0.511267
G03 X55.253940 Y6.092680 Z-0.125000 I-0.718753 J-0.351025
G03 X54.248685 Y5.871069 Z-0.125000 I0.000000 J-2.390787
G03 X53.942140 Y5.484730 Z-0.125000 I0.230717 J-0.497850
G02 X53.259052 Y4.179726 Z-0.125000 I-2.631659 J0.546230
G02 X51.884740 Y3.319150 Z-0.125000 I-2.361424 J2.243464
G02 X48.950733 Y3.452883 Z-0.125000 I-1.285760 J4.043213
G02 X46.873270 Y5.432000 Z-0.125000 I1.573052 J3.731127
G02 X46.571734 Y6.449849 Z-0.125000 I3.014016 J1.446485
G02 X46.403180 Y9.068280 Z-0.125000 I20.253905 J2.618431
G02 X46.595628 Y11.678107 Z-0.125000 I17.792464 J0.000000
G02 X46.954630 Y12.787470 Z-0.125000 I3.495034 J-0.518263
G02 X47.603129 Y13.761120 Z-0.125000 I4.781383 J-2.481848
G02 X48.228100 Y14.310560 Z-0.125000 I2.090994 J-1.748277
G02 X51.751528 Y14.813235 Z-0.125000 I2.315263 J-3.628683
G02 X53.928900 Y12.643430 Z-0.125000 I-0.901219 J-3.081748
G03 X54.313602 Y12.159605 Z-0.125000 I0.791440 J0.234439
G03 X55.288770 Y11.873360 Z-0.125000 I1.099556 J1.941720
G03 X55.988078 Y12.340070 Z-0.125000 I0.038990 J0.698848
G03 X55.914410 Y13.653010 Z-0.125000 I-1.615391 J0.567898
G03 X53.054166 Y16.220734 Z-0.125000 I-4.561693 J-2.204463
G03 X48.263000 Y16.380990 Z-0.125000 I-2.646549 J-7.422987
G03 X47.153657 Y15.889849 Z-0.125000 I1.173219 J-4.148368
G03 X45.941330 Y14.931980 Z-0.125000 I3.702132 J-5.931728
G03 X44.623813 Y12.900589 Z-0.125000 I3.969688 J-4.017607
G03 X43.925923 Y9.567060 Z-0.125000 I10.461306 J-3.929942
G03 X43.971275 Y7.429410 Z-0.125000 I14.318960 J-0.765520
G03 X44.275003 Y5.935770 Z-0.125000 I7.253510 J0.697284
G03 X45.915184 Y3.192860 Z-0.125000 I6.584930 J2.075753
G03 X48.497260 Y1.603030 Z-0.125000 I4.451398 J4.337892
G03 X51.019164 Y1.316780 Z-0.125000 I1.995392 J6.327407
G03 X53.461730 Y1.998210 Z-0.125000 I-0.525619 J6.602436
G01 X53.461730 Y1.998210 Z-0.125000
G00 Z5.000000

(End cutting path id: path555)


(Start cutting path id: path555)
(Change tool to Cylindrical cutter)

G00 Z5.000000
G00 X52.175020 Y19.624530

G01 Z-0.125000 F100.0(Penetrate)
G02 X52.038795 Y19.934152 Z-0.125000 I0.309077 J0.320764 F400.000000
G02 X52.022951 Y23.355113 Z-0.125000 I83.891828 J2.099043
G02 X52.146361 Y26.773021 Z-0.125000 I84.078280 J-1.324605
G02 X52.292660 Y27.091860 Z-0.125000 I0.479628 J-0.027094
G02 X53.778216 Y27.683028 Z-0.125000 I1.465747 J-1.521176
G02 X56.975570 Y27.048060 Z-0.125000 I-0.082361 J-8.782277
G02 X57.656672 Y26.677160 Z-0.125000 I-1.252410 J-3.110685
G02 X57.954390 Y26.357290 Z-0.125000 I-0.613847 J-0.869820
G03 X58.103141 Y26.290028 Z-0.125000 I0.123185 J0.074312
G03 X58.197490 Y26.401190 Z-0.125000 I-0.020393 J0.112929
G02 X58.607659 Y26.945269 Z-0.125000 I0.577755 J-0.008908
G02 X61.318390 Y27.347000 Z-0.125000 I2.710731 J-8.944647
G02 X63.893050 Y27.290460 Z-0.125000 I-0.000000 J-58.649470
G02 X64.252100 Y27.217990 Z-0.125000 I-0.051996 J-1.183295
G02 X64.480920 Y27.004186 Z-0.125000 I-0.140264 J-0.379461
G02 X64.609840 Y26.420960 Z-0.125000 I-1.342753 J-0.602673
G01 X64.618840 Y25.752930 Z-0.125000
G01 X64.935660 Y26.314880 Z-0.125000
G02 X65.726768 Y26.988907 Z-0.125000 I1.313796 J-0.740730
G02 X67.729300 Y27.347000 Z-0.125000 I2.002532 J-5.420246
G02 X70.127040 Y26.516309 Z-0.125000 I0.000000 J-3.875813
G02 X70.740350 Y24.976080 Z-0.125000 I-1.023422 J-1.299743
G02 X70.512742 Y24.657890 Z-0.125000 I-0.423115 J0.062162
G02 X69.784800 Y24.484910 Z-0.125000 I-0.715125 J1.391250
G02 X69.004650 Y24.650565 Z-0.125000 I0.017294 J2.001329
G02 X68.684740 Y24.963130 Z-0.125000 I0.250300 J0.576178
G03 X67.531684 Y25.730420 Z-0.125000 I-1.201419 J-0.555419
G03 X66.806980 Y25.031730 Z-0.125000 I-0.025547 J-0.698690
G03 X67.060662 Y24.625050 Z-0.125000 I0.452818 J-0.000000
G03 X68.155580 Y24.371370 Z-0.125000 I1.094918 J2.236071
G02 X69.769957 Y24.037252 Z-0.125000 I-0.000000 J-4.067199
G02 X70.539080 Y23.340620 Z-0.125000 I-0.639635 J-1.479090
G02 X70.694704 Y22.890087 Z-0.125000 I-1.200809 J-0.666929
G02 X70.777410 Y21.846680 Z-0.125000 I-6.540362 J-1.043407
G02 X70.621130 Y20.841449 Z-0.125000 I-3.311079 J-0.000000
G02 X70.249780 Y20.190790 Z-0.125000 I-1.710873 J0.545145
G02 X69.629983 Y19.792840 Z-0.125000 I-1.025341 J0.915309
G02 X68.076480 Y19.519660 Z-0.125000 I-1.859841 J6.022657
G02 X65.399264 Y20.188421 Z-0.125000 I-0.231852 J4.764998
G02 X64.601180 Y21.594340 Z-0.125000 I0.839303 J1.405919
G02 X64.831257 Y22.015847 Z-0.125000 I0.501145 J0.000000
G02 X65.614440 Y22.245940 Z-0.125000 I0.783183 J-1.217841
G02 X66.503836 Y22.084009 Z-0.125000 I-0.000000 J-2.523440
G02 X66.743060 Y21.820850 Z-0.125000 I-0.137625 J-0.365420
G03 X66.975535 Y21.548872 Z-0.125000 I0.403480 J0.109534
G03 X67.691420 Y21.395770 Z-0.125000 I0.715885 J1.597137
G03 X68.515521 Y21.738720 Z-0.125000 I-0.000000 J1.161623
G03 X68.510260 Y22.220040 Z-0.125000 I-0.239648 J0.238069
G03 X68.227404 Y22.370714 Z-0.125000 I-0.406022 J-0.421379
G03 X67.402790 Y22.458480 Z-0.125000 I-0.824614 J-3.829978
G02 X65.348266 Y23.205569 Z-0.125000 I0.000000 J3.198554
G02 X64.601180 Y24.806450 Z-0.125000 I1.341667 J1.600881
G03 X64.378252 Y25.211159 Z-0.125000 I-0.478823 J-0.000000
G03 X63.608570 Y25.434080 Z-0.125000 I-0.769682 J-1.217285
G01 X62.615960 Y25.434080 Z-0.125000
G01 X62.615960 Y22.794680 Z-0.125000
G02 X62.556824 Y20.166600 Z-0.125000 I-58.427212 J0.000000
G02 X62.482070 Y19.819080 Z-0.125000 I-1.068901 J0.048128
G02 X62.259221 Y19.614040 Z-0.125000 I-0.324797 J0.129385
G02 X61.379170 Y19.482880 Z-0.125000 I-0.880051 J2.886888
G01 X60.410170 Y19.482880 Z-0.125000
G01 X60.410170 Y22.437970 Z-0.125000
G01 X60.410170 Y25.393050 Z-0.125000
G01 X59.307130 Y25.466750 Z-0.125000
G01 X58.204090 Y25.540450 Z-0.125000
G01 X58.204230 Y24.559540 Z-0.125000
G02 X58.070196 Y23.626424 Z-0.125000 I-3.311984 J-0.000448
G02 X57.754680 Y23.027760 Z-0.125000 I-1.637640 J0.480616
G01 X57.304980 Y22.476900 Z-0.125000
G01 X57.864970 Y21.412090 Z-0.125000
G02 X58.348625 Y20.328444 Z-0.125000 I-8.164650 J-4.293816
G02 X58.424950 Y19.903490 Z-0.125000 I-1.144839 J-0.424954
G02 X58.246638 Y19.649367 Z-0.125000 I-0.270238 J0.000000
G02 X57.377190 Y19.524470 Z-0.125000 I-0.735951 J2.034486
G01 X56.329440 Y19.589270 Z-0.125000
G01 X55.667700 Y20.914870 Z-0.125000
G03 X54.917051 Y22.097871 Z-0.125000 I-6.130841 J-3.060543
G03 X54.619950 Y22.243260 Z-0.125000 I-0.299864 J-0.236513
G03 X54.400641 Y22.077982 Z-0.125000 I-0.001379 J-0.226311
G03 X54.233930 Y20.864530 Z-0.125000 I4.332856 J-1.213452
G01 X54.233930 Y19.483000 Z-0.125000
G01 X53.278090 Y19.483000 Z-0.125000
G02 X52.346273 Y19.542641 Z-0.125000 I0.000000 J7.309119
G02 X52.175190 Y19.624700 Z-0.125000 I0.038520 J0.299680
G01 X52.175020 Y19.624530 Z-0.125000
G00 Z5.000000

(End cutting path id: path555)


(Start cutting path id: path555)
(Change tool to Cylindrical cutter)

G00 Z5.000000
G00 X53.704060 Y20.659640

G01 Z-0.125000 F100.0(Penetrate)
G03 X53.777221 Y21.200495 Z-0.125000 I-2.201994 J0.573239 F400.000000
G03 X53.720160 Y21.797630 Z-0.125000 I-2.744224 J0.039060
G02 X53.924024 Y22.534214 Z-0.125000 I0.818642 J0.169929
G02 X54.721040 Y22.883520 Z-0.125000 I0.797016 J-0.734628
G02 X55.212618 Y22.674048 Z-0.125000 I0.000000 J-0.681541
G02 X56.047750 Y21.501990 Z-0.125000 I-3.565903 J-3.424389
G03 X56.864803 Y20.300378 Z-0.125000 I5.223453 J2.673171
G03 X57.262600 Y20.120460 Z-0.125000 I0.397797 J0.349804
G01 X57.770420 Y20.120460 Z-0.125000
G01 X57.215250 Y21.176110 Z-0.125000
G02 X56.793273 Y22.688344 Z-0.125000 I3.301498 J1.736248
G02 X57.090320 Y23.252700 Z-0.125000 I0.614402 J0.036964
G03 X57.711474 Y24.139748 Z-0.125000 I-0.687448 J1.142389
G03 X57.552730 Y25.622540 Z-0.125000 I-2.481590 J0.484221
G03 X56.819939 Y26.305960 Z-0.125000 I-1.143535 J-0.491571
G03 X54.443910 Y26.709290 Z-0.125000 I-2.376029 J-6.796961
G01 X52.689660 Y26.709290 Z-0.125000
G01 X52.689660 Y23.414870 Z-0.125000
G03 X52.893712 Y20.324507 Z-0.125000 I23.503765 J-0.000000
G03 X53.126610 Y20.120460 Z-0.125000 I0.232898 J0.030890
G03 X53.461509 Y20.252515 Z-0.125000 I0.000000 J0.490689
G03 X53.704010 Y20.659640 Z-0.125000 I-0.580318 J0.621447
G01 X53.704060 Y20.659640 Z-0.125000
G00 Z5.000000

(End cutting path id: path555)


(Start cutting path id: path555)
(Change tool to Cylindrical cutter)

G00 Z5.000000
G00 X50.414550 Y20.582600

G01 Z-0.125000 F100.0(Penetrate)
G03 X50.722338 Y21.134666 Z-0.125000 I-0.661241 J0.730487 F400.000000
G03 X50.925070 Y23.355310 Z-0.125000 I-12.060640 J2.220644
G03 X50.714668 Y25.576456 Z-0.125000 I-11.829144 J-0.000000
G03 X50.383640 Y26.187590 Z-0.125000 I-1.127614 J-0.215565
G03 X49.770539 Y26.531580 Z-0.125000 I-0.964874 J-1.001351
G03 X48.388400 Y26.709290 Z-0.125000 I-1.382139 J-5.285931
G03 X47.006272 Y26.531596 Z-0.125000 I0.000000 J-5.464025
G03 X46.393160 Y26.187590 Z-0.125000 I0.351710 J-1.345213
G03 X46.060858 Y25.576994 Z-0.125000 I0.801729 J-0.832043
G03 X45.851730 Y23.414870 Z-0.125000 I11.072269 J-2.162124
G03 X46.060878 Y21.252742 Z-0.125000 I11.280374 J0.000000
G03 X46.393160 Y20.642160 Z-0.125000 I1.134111 J0.221484
G03 X47.006760 Y20.299395 Z-0.125000 I0.957796 J0.993998
G03 X48.419300 Y20.120460 Z-0.125000 I1.412540 J5.485922
G03 X49.841372 Y20.282981 Z-0.125000 I0.000000 J6.302868
G03 X50.414550 Y20.582600 Z-0.125000 I-0.290271 J1.253356
G01 X50.414550 Y20.582600 Z-0.125000
G00 Z5.000000

(End cutting path id: path555)


(Start cutting path id: path555)
(Change tool to Cylindrical cutter)

G00 Z5.000000
G00 X49.270720 Y23.414870

G01 Z-0.125000 F100.0(Penetrate)
G01 X49.270720 Y25.327760 Z-0.125000 F400.000000
G01 X48.388400 Y25.327760 Z-0.125000
G01 X47.506080 Y25.327760 Z-0.125000
G01 X47.440980 Y23.646200 Z-0.125000
G03 X47.799322 Y21.814957 Z-0.125000 I4.056124 J-0.156969
G03 X48.441730 Y21.435920 Z-0.125000 I0.590878 J0.267537
G01 X49.270680 Y21.502020 Z-0.125000
G01 X49.270720 Y23.414870 Z-0.125000
G00 Z5.000000

(End cutting path id: path555)


(Start cutting path id: path555)
(Change tool to Cylindrical cutter)

G00 Z5.000000
G00 X47.077430 Y21.230470

G01 Z-0.125000 F100.0(Penetrate)
G02 X46.865346 Y21.745517 Z-0.125000 I0.955734 J0.694737 F400.000000
G02 X46.734050 Y23.462170 Z-0.125000 I11.156678 J1.716653
G02 X46.902777 Y25.149778 Z-0.125000 I8.524084 J0.000000
G02 X47.175210 Y25.646570 Z-0.125000 I0.932710 J-0.188388
G02 X48.388413 Y26.130250 Z-0.125000 I1.199202 J-1.244567
G02 X49.622180 Y25.626770 Z-0.125000 I-0.014575 J-1.799116
G02 X49.893749 Y25.105192 Z-0.125000 I-0.640988 J-0.665229
G02 X50.008200 Y23.174560 Z-0.125000 I-9.871321 J-1.553899
G02 X49.390139 Y21.312472 Z-0.125000 I-3.513497 J0.132576
G02 X48.345760 Y20.761380 Z-0.125000 I-1.048866 J0.722563
G02 X47.498595 Y20.911627 Z-0.125000 I-0.006849 J2.424869
G02 X47.077430 Y21.230510 Z-0.125000 I0.315680 J0.854504
G01 X47.077430 Y21.230470 Z-0.125000
G00 Z5.000000

(End cutting path id: path555)


(Start cutting path id: path555)
(Change tool to Cylindrical cutter)

G00 Z5.000000
G00 X46.024900 Y20.099370

G01 Z-0.125000 F100.0(Penetrate)
G02 X45.561156 Y20.836402 Z-0.125000 I0.966384 J1.122465 F400.000000
G02 X45.237273 Y23.021830 Z-0.125000 I9.205595 J2.480992
G02 X46.306796 Y26.225195 Z-0.125000 I4.878788 J0.151320
G02 X48.663360 Y27.297940 Z-0.125000 I2.239110 J-1.794011
G02 X50.182527 Y27.046868 Z-0.125000 I-0.256928 J-6.276167
G02 X50.869160 Y26.647760 Z-0.125000 I-0.472635 J-1.603333
G02 X51.256675 Y25.965364 Z-0.125000 I-0.958262 J-0.995399
G02 X51.551610 Y23.713550 Z-0.125000 I-11.271304 J-2.621500
G02 X50.543484 Y20.590226 Z-0.125000 I-4.860934 J-0.155380
G02 X48.292550 Y19.482830 Z-0.125000 I-2.250934 J1.733968
G02 X46.814277 Y19.680202 Z-0.125000 I-0.000000 J5.634669
G02 X46.024900 Y20.099370 Z-0.125000 I0.530858 J1.952571
G01 X46.024900 Y20.099370 Z-0.125000
G00 Z5.000000

(End cutting path id: path555)


(Start cutting path id: path555)
(Change tool to Cylindrical cutter)

G00 Z5.000000
G00 X42.653333 Y24.690130

G01 Z-0.125000 F100.0(Penetrate)
G03 X42.446761 Y25.137023 Z-0.125000 I-0.586685 J-0.000000 F400.000000
G03 X41.826153 Y25.393730 Z-0.125000 I-0.707418 J-0.831700
G03 X41.236035 Y25.202986 Z-0.125000 I-0.064503 J-0.808658
G03 X40.998983 Y24.690130 Z-0.125000 I0.436249 J-0.512856
G03 X41.236030 Y24.177289 Z-0.125000 I0.673279 J0.000000
G03 X41.826153 Y23.986540 Z-0.125000 I0.525630 J0.617939
G03 X42.446772 Y24.243236 Z-0.125000 I-0.086704 J1.088215
G03 X42.653333 Y24.690130 Z-0.125000 I-0.380146 J0.446894
G01 X42.653333 Y24.690130 Z-0.125000
G00 Z5.000000

(End cutting path id: path555)


(Start cutting path id: path555)
(Change tool to Cylindrical cutter)

G00 Z5.000000
G00 X40.381823 Y24.637030

G01 Z-0.125000 F100.0(Penetrate)
G01 X40.447523 Y25.965430 Z-0.125000 F400.000000
G01 X41.440133 Y26.027930 Z-0.125000
G02 X42.803290 Y25.603981 Z-0.125000 I0.125767 J-1.999118
G02 X43.284323 Y24.579170 Z-0.125000 I-0.778135 J-0.990547
G02 X42.835274 Y23.741787 Z-0.125000 I-1.059009 J0.028803
G02 X41.484753 Y23.311920 Z-0.125000 I-1.357079 J1.927148
G01 X40.316183 Y23.308920 Z-0.125000
G01 X40.381883 Y24.637320 Z-0.125000
G01 X40.381823 Y24.637030 Z-0.125000
G00 Z5.000000

(End cutting path id: path555)


(Start cutting path id: path555)
(Change tool to Cylindrical cutter)

G00 Z5.000000
G00 X40.381383 Y21.342620

G01 Z-0.125000 F100.0(Penetrate)
G01 X40.447583 Y22.564740 Z-0.125000 F400.000000
G01 X42.064963 Y22.671010 Z-0.125000
G03 X43.729593 Y23.359776 Z-0.125000 I-0.184038 J2.800732
G03 X44.307733 Y24.634180 Z-0.125000 I-1.115524 J1.274404
G03 X44.144810 Y25.596666 Z-0.125000 I-2.924461 J0.000000
G03 X43.766303 Y26.187630 Z-0.125000 I-1.427248 J-0.497443
G03 X43.147389 Y26.517211 Z-0.125000 I-0.887907 J-0.921469
G03 X41.339933 Y26.709330 Z-0.125000 I-1.807456 J-8.406231
G01 X39.454973 Y26.709330 Z-0.125000
G01 X39.454973 Y23.414910 Z-0.125000
G03 X39.656080 Y20.321580 Z-0.125000 I23.890626 J0.000000
G03 X39.885123 Y20.120500 Z-0.125000 I0.229043 J0.029908
G03 X40.147771 Y20.297317 Z-0.125000 I0.000000 J0.283481
G03 X40.381433 Y21.342620 Z-0.125000 I-3.005727 J1.220653
G01 X40.381383 Y21.342620 Z-0.125000
G00 Z5.000000

(End cutting path id: path555)


(Start cutting path id: path555)
(Change tool to Cylindrical cutter)

G00 Z5.000000
G00 X38.895913 Y19.744040

G01 Z-0.125000 F100.0(Penetrate)
G02 X38.837071 Y20.039905 Z-0.125000 I0.771377 J0.307197 F400.000000
G02 X38.842813 Y23.635260 Z-0.125000 I117.915511 J1.609361
G01 X38.903513 Y27.240680 Z-0.125000
G01 X41.269893 Y27.240680 Z-0.125000
G02 X43.548988 Y27.024431 Z-0.125000 I0.000000 J-12.118062
G02 X44.223063 Y26.675120 Z-0.125000 I-0.250588 J-1.308614
G02 X44.660958 Y26.037319 Z-0.125000 I-1.337006 J-1.387172
G02 X44.917483 Y25.030370 Z-0.125000 I-3.201856 J-1.351837
G02 X44.212730 Y22.941896 Z-0.125000 I-2.660633 J-0.265319
G02 X42.123883 Y22.033390 Z-0.125000 I-2.088847 J1.947099
G01 X41.021043 Y22.033390 Z-0.125000
G01 X40.954843 Y20.811270 Z-0.125000
G01 X40.888643 Y19.589140 Z-0.125000
G01 X39.949163 Y19.523740 Z-0.125000
G02 X39.087870 Y19.582678 Z-0.125000 I-0.218308 J3.132475
G02 X38.895853 Y19.744090 Z-0.125000 I0.054287 J0.259500
G01 X38.895913 Y19.744040 Z-0.125000
G00 Z5.000000

(End cutting path id: path555)


(Start cutting path id: path555)
(Change tool to Cylindrical cutter)

G00 Z5.000000
G00 X37.249123 Y20.545590

G01 Z-0.125000 F100.0(Penetrate)
G03 X37.770504 Y21.746546 Z-0.125000 I-1.182138 J1.226866 F400.000000
G03 X37.288023 Y23.102610 Z-0.125000 I-2.058907 J0.031315
G03 X36.808388 Y23.440159 Z-0.125000 I-0.877634 J-0.737523
G03 X35.502733 Y23.763540 Z-0.125000 I-2.093430 J-5.654753
G02 X34.132964 Y23.983968 Z-0.125000 I3.176862 J24.107577
G02 X33.919783 Y24.064850 Z-0.125000 I0.122754 J0.644928
G02 X33.525370 Y24.789636 Z-0.125000 I0.413835 J0.694909
G02 X33.984583 Y25.816650 Z-0.125000 I1.502241 J-0.055532
G02 X35.743739 Y26.340085 Z-0.125000 I1.385211 J-1.437611
G02 X36.587423 Y25.320320 Z-0.125000 I-0.194455 J-1.019765
G03 X36.703126 Y25.124678 Z-0.125000 I0.223257 J0.000000
G03 X37.153743 Y25.008980 Z-0.125000 I0.450617 J0.819676
G03 X37.506043 Y25.167963 Z-0.125000 I0.000000 J0.469831
G03 X37.575733 Y25.487210 Z-0.125000 I-0.251836 J0.222205
G03 X36.902396 Y26.299349 Z-0.125000 I-1.299443 J-0.392158
G03 X35.225013 Y26.709330 Z-0.125000 I-1.677383 J-3.226401
G03 X33.931598 Y26.626388 Z-0.125000 I-0.000000 J-10.126325
G03 X33.474253 Y26.483860 Z-0.125000 I0.176689 J-1.371995
G03 X32.496267 Y24.955180 Z-0.125000 I0.828964 J-1.607514
G03 X33.343373 Y23.484020 Z-0.125000 I1.581220 J-0.068986
G03 X33.850248 Y23.292361 Z-0.125000 I1.042723 J1.991573
G03 X35.037283 Y23.068270 Z-0.125000 I2.662808 J10.849207
G02 X36.439701 Y22.429075 Z-0.125000 I-0.349958 J-2.625898
G02 X36.690063 Y21.610430 Z-0.125000 I-0.540656 J-0.612952
G02 X36.251855 Y21.046944 Z-0.125000 I-0.873433 J0.227111
G02 X35.153663 Y20.764640 Z-0.125000 I-1.098192 J1.994892
G02 X34.078497 Y20.998560 Z-0.125000 I0.000000 J2.587847
G02 X33.655583 Y21.448890 Z-0.125000 I0.338934 J0.742049
G03 X33.032402 Y21.914669 Z-0.125000 I-0.680384 J-0.260531
G03 X32.616993 Y21.530690 Z-0.125000 I-0.030242 J-0.383979
G03 X32.684042 Y21.264434 Z-0.125000 I0.562185 J0.000000
G03 X33.074163 Y20.680520 Z-0.125000 I3.239063 J1.741783
G03 X33.627437 Y20.323026 Z-0.125000 I0.829861 J0.677448
G03 X35.169673 Y20.120500 Z-0.125000 I1.542236 J5.770794
G03 X36.743769 Y20.279738 Z-0.125000 I-0.000000 J7.859739
G03 X37.249163 Y20.545590 Z-0.125000 I-0.205054 J1.003126
G01 X37.249123 Y20.545590 Z-0.125000
G00 Z5.000000

(End cutting path id: path555)


(Start cutting path id: path555)
(Change tool to Cylindrical cutter)

G00 Z5.000000
G00 X32.880633 Y20.011900

G01 Z-0.125000 F100.0(Penetrate)
G02 X32.109883 Y21.064341 Z-0.125000 I1.613588 J1.990151 F400.000000
G02 X32.111823 Y21.966780 Z-0.125000 I1.141096 J0.448769
G02 X32.299470 Y22.133140 Z-0.125000 I0.258983 J-0.103113
G02 X33.166273 Y22.245930 Z-0.125000 I0.866803 J-3.274347
G02 X33.988086 Y22.087097 Z-0.125000 I-0.000000 J-2.205470
G02 X34.224923 Y21.820840 Z-0.125000 I-0.148957 J-0.370961
G03 X34.460859 Y21.553390 Z-0.125000 I0.389405 J0.105728
G03 X35.258603 Y21.395760 Z-0.125000 I0.797744 J1.939816
G03 X35.962761 Y21.580663 Z-0.125000 I0.000000 J1.433261
G03 X36.106423 Y21.873980 Z-0.125000 I-0.141724 J0.251254
G03 X35.875230 Y22.182656 Z-0.125000 I-0.400516 J-0.059062
G03 X34.822753 Y22.465030 Z-0.125000 I-1.351792 J-2.935850
G02 X32.876394 Y23.349671 Z-0.125000 I0.302087 J3.248122
G02 X32.175793 Y24.983160 Z-0.125000 I1.553984 J1.633489
G02 X32.826356 Y26.529891 Z-0.125000 I2.163978 J0.000000
G02 X34.545523 Y27.301850 Z-0.125000 I1.908945 J-1.950967
G02 X37.363618 Y26.628716 Z-0.125000 I0.336441 J-4.827068
G02 X38.091443 Y25.183430 Z-0.125000 I-0.774097 J-1.295729
G02 X37.837372 Y24.649088 Z-0.125000 I-0.871438 J0.086781
G02 X37.249123 Y24.346200 Z-0.125000 I-0.772046 J0.776742
G03 X36.818618 Y24.229855 Z-0.125000 I0.393373 J-2.310235
G01 X36.824663 Y24.186790 Z-0.125000
G02 X38.080490 Y23.258939 Z-0.125000 I-0.118634 J-1.474361
G02 X38.138063 Y20.883710 Z-0.125000 I-3.182591 J-1.265455
G02 X37.310191 Y19.970011 Z-0.125000 I-1.476162 J0.505598
G02 X35.071213 Y19.482870 Z-0.125000 I-2.238978 J4.901777
G02 X33.595402 Y19.658536 Z-0.125000 I0.000000 J6.287160
G02 X32.880633 Y20.011900 Z-0.125000 I0.424661 J1.758569
G01 X32.880633 Y20.011900 Z-0.125000
G00 Z5.000000

(End cutting path id: path555)


(Start cutting path id: path555)
(Change tool to Cylindrical cutter)

G00 Z5.000000
G00 X36.106093 Y24.902710

G01 Z-0.125000 F100.0(Penetrate)
G03 X35.754284 Y25.275296 Z-0.125000 I-0.747563 J-0.353486 F400.000000
G03 X35.131233 Y25.434070 Z-0.125000 I-0.623051 J-1.143085
G03 X34.454295 Y25.348751 Z-0.125000 I-0.000000 J-2.728131
G03 X34.265333 Y25.212220 Z-0.125000 I0.078978 J-0.308337
G03 X34.366162 Y24.721287 Z-0.125000 I0.302102 J-0.193774
G03 X35.506773 Y24.371360 Z-0.125000 I1.140611 J1.683987
G03 X36.038659 Y24.573194 Z-0.125000 I0.000000 J0.801748
G03 X36.106093 Y24.902710 Z-0.125000 I-0.185927 J0.209707
G01 X36.106093 Y24.902710 Z-0.125000
G00 Z5.000000

(End cutting path id: path555)


(Start cutting path id: path555)
(Change tool to Cylindrical cutter)

G00 Z5.000000
G00 X34.876213 Y30.886950

G01 Z-0.125000 F100.0(Penetrate)
G02 X33.996115 Y31.537288 Z-0.125000 I0.783764 J1.981348 F400.000000
G02 X32.318213 Y34.084630 Z-0.125000 I12.927998 J10.341783
G02 X32.121293 Y34.806379 Z-0.125000 I1.486563 J0.793328
G02 X31.955213 Y42.622080 Z-0.125000 I183.819995 J7.815701
G02 X32.019349 Y50.467053 Z-0.125000 I479.818494 J-0.000000
G02 X32.089103 Y50.815530 Z-0.125000 I0.985881 J-0.016121
G02 X32.327162 Y50.998109 Z-0.125000 I0.272174 J-0.108390
G02 X34.956643 Y51.151730 Z-0.125000 I2.629481 J-22.427204
G01 X37.690283 Y51.151730 Z-0.125000
G01 X37.690283 Y43.606460 Z-0.125000
G01 X37.690283 Y36.061200 Z-0.125000
G01 X41.274713 Y36.058200 Z-0.125000
G02 X44.836695 Y35.975350 Z-0.125000 I-0.081266 J-80.105546
G02 X45.142423 Y35.881740 Z-0.125000 I-0.029203 J-0.641433
G02 X45.293749 Y35.636765 Z-0.125000 I-0.166235 J-0.271913
G02 X45.363003 Y33.281360 Z-0.125000 I-21.266936 J-1.804012
G01 X45.300303 Y30.854170 Z-0.125000
G01 X40.226973 Y30.815770 Z-0.125000
G02 X35.163540 Y30.830381 Z-0.125000 I-1.832458 J242.329938
G02 X34.876233 Y30.887170 Z-0.125000 I0.010798 J0.809800
G01 X34.876213 Y30.886950 Z-0.125000
G00 Z5.000000

(End cutting path id: path555)


(Start cutting path id: path555)
(Change tool to Cylindrical cutter)

G00 Z5.000000
G00 X34.545973 Y32.501120

G01 Z-0.125000 F100.0(Penetrate)
G02 X33.489419 Y34.800481 Z-0.125000 I3.783908 J3.131125 F400.000000
G02 X32.837533 Y42.443400 Z-0.125000 I44.478070 J7.642919
G02 X33.006484 Y50.138416 Z-0.125000 I175.321967 J-0.000000
G02 X33.186443 Y50.385090 Z-0.125000 I0.275640 J-0.012110
G02 X35.782101 Y50.823694 Z-0.125000 I2.458313 J-6.648445
G02 X36.687593 Y50.317290 Z-0.125000 I-0.021335 J-1.100898
G02 X36.753912 Y50.102519 Z-0.125000 I-0.353954 J-0.226923
G02 X36.907233 Y42.718890 Z-0.125000 I-453.247109 J-13.105055
G01 X37.000633 Y35.317310 Z-0.125000
G01 X40.709293 Y35.211030 Z-0.125000
G01 X44.417963 Y35.104760 Z-0.125000
G01 X44.482063 Y33.351300 Z-0.125000
G01 X44.546163 Y31.597820 Z-0.125000
G01 X39.919833 Y31.597820 Z-0.125000
G01 X35.293513 Y31.597820 Z-0.125000
G01 X34.545973 Y32.501120 Z-0.125000
G00 Z5.000000

(End cutting path id: path555)


(Start cutting path id: path555)
(Change tool to Cylindrical cutter)

G00 Z5.000000
G00 X44.051083 Y32.635230

G01 Z-0.125000 F100.0(Penetrate)
G03 X44.074628 Y33.140109 Z-0.125000 I-2.521989 J0.370601 F400.000000
G03 X43.986983 Y33.852250 Z-0.125000 I-5.140130 J-0.271145
G01 X43.848563 Y34.563210 Z-0.125000
G01 X40.162853 Y34.621410 Z-0.125000
G01 X36.477153 Y34.679610 Z-0.125000
G01 X36.419253 Y42.278000 Z-0.125000
G01 X36.361353 Y49.876400 Z-0.125000
G01 X34.930313 Y49.876400 Z-0.125000
G01 X33.499333 Y49.876400 Z-0.125000
G01 X33.499333 Y42.369520 Z-0.125000
G01 X33.499333 Y34.862640 Z-0.125000
G01 X34.387633 Y33.708420 Z-0.125000
G03 X35.311141 Y32.590451 Z-0.125000 I16.654368 J12.817066
G03 X35.649533 Y32.283890 Z-0.125000 I1.559894 J1.381817
G03 X36.062686 Y32.138870 Z-0.125000 I0.450669 J0.622894
G03 X39.999993 Y32.071350 Z-0.125000 I3.034340 J62.109818
G01 X43.976873 Y32.129050 Z-0.125000
G01 X44.051083 Y32.635230 Z-0.125000
G00 Z5.000000

(End cutting path id: path555)


(Start cutting path id: path555)
(Change tool to Cylindrical cutter)

G00 Z5.000000
G00 X44.693693 Y31.374550

G01 Z-0.125000 F100.0(Penetrate)
G03 X45.359744 Y32.040969 Z-0.125000 I-0.026855 J0.692892 F400.000000
G03 X44.835533 Y35.087370 Z-0.125000 I-7.458103 J0.284945
G03 X44.594958 Y35.266248 Z-0.125000 I-0.265378 J-0.105694
G03 X40.978173 Y35.423570 Z-0.125000 I-3.616785 J-41.495806
G01 X37.254703 Y35.423570 Z-0.125000
G01 X37.196803 Y43.021970 Z-0.125000
G01 X37.138903 Y50.620370 Z-0.125000
G01 X34.877953 Y50.680970 Z-0.125000
G01 X32.617013 Y50.741570 Z-0.125000
G01 X32.617013 Y42.684150 Z-0.125000
G01 X32.617013 Y34.626730 Z-0.125000
G01 X33.835433 Y33.019120 Z-0.125000
G03 X35.160668 Y31.603579 Z-0.125000 I7.448932 J5.645601
G03 X35.765513 Y31.345280 Z-0.125000 I0.704477 J0.812321
G03 X38.176100 Y31.237322 Z-0.125000 I2.327211 J24.997256
G03 X44.693753 Y31.374580 Z-0.125000 I-0.610400 J183.797652
G01 X44.693693 Y31.374550 Z-0.125000
G00 Z5.000000

(End cutting path id: path555)


(Start cutting path id: path555)
(Change tool to Cylindrical cutter)

G00 Z5.000000
G00 X46.666970 Y30.883130

G01 Z-0.125000 F100.0(Penetrate)
G02 X46.588886 Y31.062999 Z-0.125000 I0.176955 J0.183703 F400.000000
G02 X46.513470 Y41.097720 Z-0.125000 I667.564913 J10.034721
G01 X46.513470 Y51.164430 Z-0.125000
G01 X49.325860 Y51.104930 Z-0.125000
G01 X52.138260 Y51.045430 Z-0.125000
G01 X52.138260 Y40.949650 Z-0.125000
G01 X52.138260 Y30.853880 Z-0.125000
G01 X49.479360 Y30.794580 Z-0.125000
G02 X46.848489 Y30.806463 Z-0.125000 I-1.093832 J49.067758
G02 X46.666970 Y30.883180 Z-0.125000 I0.008565 J0.273370
G01 X46.666970 Y30.883130 Z-0.125000
G00 Z5.000000

(End cutting path id: path555)


(Start cutting path id: path555)
(Change tool to Cylindrical cutter)

G00 Z5.000000
G00 X47.389020 Y31.855210

G01 Z-0.125000 F100.0(Penetrate)
G02 X47.211127 Y49.619303 Z-0.125000 I603.682525 J14.928321 F400.000000
G02 X47.475520 Y50.236650 Z-0.125000 I0.862393 J-0.004050
G02 X48.408705 Y50.645254 Z-0.125000 I1.019178 J-1.057715
G02 X50.796010 Y50.431370 Z-0.125000 I0.476023 J-8.116914
G01 X51.370900 Y50.292340 Z-0.125000
G01 X51.313400 Y40.998200 Z-0.125000
G01 X51.255900 Y31.704080 Z-0.125000
G01 X49.325820 Y31.642680 Z-0.125000
G02 X47.519673 Y31.712948 Z-0.125000 I-0.406885 J12.789070
G02 X47.388980 Y31.855220 Z-0.125000 I0.016052 J0.145910
G01 X47.389020 Y31.855210 Z-0.125000
G00 Z5.000000

(End cutting path id: path555)


(Start cutting path id: path555)
(Change tool to Cylindrical cutter)

G00 Z5.000000
G00 X50.704490 Y40.949680

G01 Z-0.125000 F100.0(Penetrate)
G01 X50.704490 Y49.876470 Z-0.125000 F400.000000
G01 X49.270720 Y49.876470 Z-0.125000
G01 X47.836950 Y49.876470 Z-0.125000
G01 X47.836950 Y40.949680 Z-0.125000
G01 X47.836950 Y32.022890 Z-0.125000
G01 X49.270720 Y32.022890 Z-0.125000
G01 X50.704490 Y32.022890 Z-0.125000
G01 X50.704490 Y40.949680 Z-0.125000
G00 Z5.000000

(End cutting path id: path555)


(Start cutting path id: path555)
(Change tool to Cylindrical cutter)

G00 Z5.000000
G00 X51.586810 Y41.063380

G01 Z-0.125000 F100.0(Penetrate)
G01 X51.586810 Y50.741510 Z-0.125000 F400.000000
G01 X49.325860 Y50.680910 Z-0.125000
G01 X47.064920 Y50.620310 Z-0.125000
G01 X47.007520 Y41.002750 Z-0.125000
G01 X46.950120 Y31.385210 Z-0.125000
G01 X49.268450 Y31.385210 Z-0.125000
G01 X51.586790 Y31.385210 Z-0.125000
G01 X51.586810 Y41.063380 Z-0.125000
G00 Z5.000000

(End cutting path id: path555)


(Start cutting path id: path555)
(Change tool to Cylindrical cutter)

G00 Z5.000000
G00 X58.560510 Y31.733630

G01 Z-0.125000 F100.0(Penetrate)
G02 X57.562878 Y32.189406 Z-0.125000 I1.108120 J3.745254 F400.000000
G02 X56.342500 Y33.153490 Z-0.125000 I4.233728 J6.613675
G02 X55.227343 Y35.151166 Z-0.125000 I2.743040 J2.841333
G02 X54.564660 Y41.283910 Z-0.125000 I28.046143 J6.132744
G01 X54.564660 Y46.187850 Z-0.125000
G01 X55.231360 Y47.447650 Z-0.125000
G02 X57.288670 Y49.505634 Z-0.125000 I4.373003 J-2.314261
G02 X61.292340 Y50.657750 Z-0.125000 I4.746517 J-8.961868
G02 X64.473013 Y50.432983 Z-0.125000 I0.814553 J-11.090497
G02 X66.696550 Y49.480920 Z-0.125000 I-1.361514 J-6.252365
G02 X68.280134 Y47.791785 Z-0.125000 I-2.933591 J-4.337159
G02 X68.792050 Y45.906280 Z-0.125000 I-3.216420 J-1.885505
G01 X68.792050 Y45.200490 Z-0.125000
G01 X66.961440 Y45.200490 Z-0.125000
G01 X65.130820 Y45.200490 Z-0.125000
G01 X64.847090 Y45.956560 Z-0.125000
G03 X64.068096 Y46.706798 Z-0.125000 I-1.175691 J-0.441209
G03 X61.480620 Y47.077440 Z-0.125000 I-2.317197 J-6.959520
G03 X59.739224 Y45.918647 Z-0.125000 I0.073701 J-1.998608
G03 X58.645390 Y40.949640 Z-0.125000 I10.739544 J-4.969007
G03 X59.760274 Y36.083707 Z-0.125000 I11.176169 J0.000000
G03 X61.545850 Y34.952380 Z-0.125000 I1.803966 J0.872451
G03 X63.599256 Y34.996258 Z-0.125000 I0.308383 J33.638021
G03 X64.099820 Y35.085030 Z-0.125000 I-0.106935 J2.058641
G03 X64.728253 Y35.700500 Z-0.125000 I-0.283087 J0.917619
G03 X64.952450 Y37.657240 Z-0.125000 I-4.569884 J1.514818
G01 X64.874250 Y38.505400 Z-0.125000
G01 X63.515710 Y38.568900 Z-0.125000
G01 X62.157160 Y38.632400 Z-0.125000
G01 X62.221060 Y40.375520 Z-0.125000
G01 X62.284960 Y42.118630 Z-0.125000
G01 X64.474570 Y42.118630 Z-0.125000
G01 X66.664180 Y42.118630 Z-0.125000
G01 X67.751730 Y40.786400 Z-0.125000
G01 X68.839270 Y39.454170 Z-0.125000
G01 X68.839940 Y37.542110 Z-0.125000
G02 X68.662771 Y35.672593 Z-0.125000 I-9.910297 J-0.003983
G02 X68.250860 Y34.468430 Z-0.125000 I-4.471509 J0.857047
G02 X66.074671 Y32.352435 Z-0.125000 I-4.181038 J2.122933
G02 X61.763240 Y31.400040 Z-0.125000 I-4.242309 J8.969674
G02 X59.653085 Y31.516863 Z-0.125000 I0.142420 J21.688575
G02 X58.560430 Y31.733640 Z-0.125000 I0.630978 J6.042550
G01 X58.560510 Y31.733630 Z-0.125000
G00 Z5.000000

(End cutting path id: path555)


(Start cutting path id: path555)
(Change tool to Cylindrical cutter)

G00 Z5.000000
G00 X58.708480 Y30.843400

G01 Z-0.125000 F100.0(Penetrate)
G02 X56.020774 Y32.307180 Z-0.125000 I2.155095 J7.156451 F400.000000
G02 X54.185270 Y34.691340 Z-0.125000 I4.680856 J5.502306
G02 X53.888592 Y35.789143 Z-0.125000 I2.828008 J1.353251
G02 X53.682340 Y40.843370 Z-0.125000 I61.824129 J5.054227
G02 X54.402966 Y47.153563 Z-0.125000 I27.988064 J0.000000
G02 X55.652950 Y49.358720 Z-0.125000 I4.343275 J-1.005115
G02 X57.770516 Y50.734455 Z-0.125000 I4.622107 J-4.796889
G02 X60.884810 Y51.481540 Z-0.125000 I4.028502 J-9.928539
G02 X67.461921 Y49.584067 Z-0.125000 I0.815366 J-9.521426
G02 X69.696720 Y44.822000 Z-0.125000 I-3.402489 J-4.502179
G02 X69.464004 Y44.562477 Z-0.125000 I-0.275181 J0.012656
G02 X66.972270 Y44.396920 Z-0.125000 I-2.179529 J13.969435
G01 X64.270170 Y44.456620 Z-0.125000
G01 X64.195470 Y45.094250 Z-0.125000
G03 X63.681294 Y45.839190 Z-0.125000 I-0.959507 J-0.112357
G03 X61.945070 Y46.263240 Z-0.125000 I-1.736224 J-3.342362
G03 X60.235014 Y46.209930 Z-0.125000 I0.000000 J-27.453782
G03 X59.876580 Y46.134220 Z-0.125000 I0.078513 J-1.258030
G03 X59.693723 Y45.889569 Z-0.125000 I0.097406 J-0.263464
G03 X59.527670 Y40.936560 Z-0.125000 I73.785846 J-4.953009
G01 X59.527670 Y35.867910 Z-0.125000
G01 X60.321570 Y35.724390 Z-0.125000
G03 X63.171956 Y35.614595 Z-0.125000 I1.813825 J10.034353
G03 X63.966820 Y36.096870 Z-0.125000 I-0.110119 J1.077660
G03 X64.090322 Y36.398960 Z-0.125000 I-0.707932 J0.465711
G03 X64.156460 Y37.060620 Z-0.125000 I-3.450509 J0.679039
G01 X64.159460 Y37.741240 Z-0.125000
G01 X62.780840 Y37.804540 Z-0.125000
G01 X61.402210 Y37.867840 Z-0.125000
G01 X61.339510 Y40.295030 Z-0.125000
G02 X61.408751 Y42.650426 Z-0.125000 I21.335356 J0.551522
G02 X61.560090 Y42.895420 Z-0.125000 I0.317583 J-0.026939
G02 X61.865030 Y42.992054 Z-0.125000 I0.348195 J-0.569315
G02 X64.275830 Y43.071880 Z-0.125000 I2.461615 J-37.898684
G02 X66.880961 Y42.478189 Z-0.125000 I0.008307 J-5.976083
G02 X68.707900 Y40.933710 Z-0.125000 I-2.082231 J-4.315805
G01 X69.784260 Y39.415400 Z-0.125000
G01 X69.767460 Y37.685180 Z-0.125000
G02 X69.668596 Y35.967293 Z-0.125000 I-17.919512 J0.169473
G02 X69.492460 Y35.084670 Z-0.125000 I-4.899945 J0.518946
G02 X67.904611 Y32.516274 Z-0.125000 I-5.520789 J1.638072
G02 X64.965040 Y30.851670 Z-0.125000 I-4.922364 J5.264704
G02 X61.746003 Y30.398005 Z-0.125000 I-3.234554 J11.303823
G02 X58.708060 Y30.843670 Z-0.125000 I-0.013835 J10.482835
G01 X58.708480 Y30.843400 Z-0.125000
G00 Z5.000000

(End cutting path id: path555)


(Start cutting path id: path555)
(Change tool to Cylindrical cutter)

G00 Z5.000000
G00 X63.690220 Y31.183060

G01 Z-0.125000 F100.0(Penetrate)
G03 X67.482486 Y33.269346 Z-0.125000 I-0.980687 J6.272374 F400.000000
G03 X69.180190 Y37.442680 Z-0.125000 I-5.171720 J4.535823
G01 X69.269890 Y39.143030 Z-0.125000
G01 X68.133980 Y40.683460 Z-0.125000
G03 X66.922060 Y42.109335 Z-0.125000 I-10.910799 J-8.045643
G03 X66.516430 Y42.339840 Z-0.125000 I-0.602865 J-0.588732
G03 X66.029297 Y42.402815 Z-0.125000 I-0.534574 J-2.219572
G03 X63.939280 Y42.393440 Z-0.125000 I-0.859534 J-41.355376
G01 X61.843770 Y42.331140 Z-0.125000
G01 X61.843770 Y40.418250 Z-0.125000
G01 X61.843770 Y38.505370 Z-0.125000
G01 X63.222400 Y38.442070 Z-0.125000
G01 X64.601020 Y38.378770 Z-0.125000
G01 X64.601020 Y37.049890 Z-0.125000
G02 X64.494504 Y35.766301 Z-0.125000 I-7.787326 J0.000000
G02 X64.336320 Y35.465970 Z-0.125000 I-0.533460 J0.089150
G02 X62.417428 Y34.684131 Z-0.125000 I-1.938327 J2.011580
G02 X59.292610 Y35.430970 Z-0.125000 I-0.046721 J6.715152
G02 X59.065418 Y35.772566 Z-0.125000 I0.193363 J0.374953
G02 X58.865950 Y40.810190 Z-0.125000 I63.513560 J5.037624
G02 X59.009377 Y45.921152 Z-0.125000 I91.135019 J-0.000000
G02 X59.178900 Y46.381960 Z-0.125000 I0.839194 J-0.047137
G02 X59.575752 Y46.633171 Z-0.125000 I0.534668 J-0.405575
G02 X61.499930 Y46.868990 Z-0.125000 I2.347784 J-11.188762
G02 X64.013461 Y46.420448 Z-0.125000 I0.223197 J-6.016163
G02 X64.641870 Y45.576540 Z-0.125000 I-0.388977 J-0.945573
G01 X64.711270 Y44.881650 Z-0.125000
G01 X66.914050 Y44.881650 Z-0.125000
G03 X68.579266 Y45.557357 Z-0.125000 I0.000000 J2.389736
G03 X68.905260 Y46.816130 Z-0.125000 I-0.871827 J0.897383
G03 X67.599558 Y48.984306 Z-0.125000 I-4.915725 J-1.483067
G03 X65.249850 Y50.430280 Z-0.125000 I-4.289768 J-4.338749
G03 X61.840704 Y50.992818 Z-0.125000 I-3.446889 J-10.277669
G03 X58.510930 Y50.453780 Z-0.125000 I-0.035972 J-10.331731
G03 X56.449949 Y49.274312 Z-0.125000 I1.950556 J-5.798759
G03 X54.964060 Y47.373580 Z-0.125000 I4.141002 J-4.768371
G01 X54.344020 Y46.156930 Z-0.125000
G01 X54.344020 Y40.949640 Z-0.125000
G03 X54.876714 Y35.233247 Z-0.125000 I30.937959 J-0.000000
G03 X55.783950 Y33.290620 Z-0.125000 I4.240587 J0.797259
G03 X57.874889 Y31.768311 Z-0.125000 I3.983433 J3.274230
G03 X61.623150 Y30.986740 Z-0.125000 I4.147511 J10.511900
G03 X62.282319 Y31.006295 Z-0.125000 I0.179574 J5.066481
G03 X63.690160 Y31.183060 Z-0.125000 I-2.225518 J23.419798
G01 X63.690220 Y31.183060 Z-0.125000
G00 Z5.000000

(End cutting path id: path555)


(Start cutting path id: path555)
(Change tool to Cylindrical cutter)

G00 Z5.000000
G00 X65.420950 Y32.567480

G01 Z-0.125000 F100.0(Penetrate)
G03 X67.493216 Y34.492608 Z-0.125000 I-1.988781 J4.218673 F400.000000
G03 X68.350900 Y37.755370 Z-0.125000 I-5.777183 J3.262762
G03 X68.132334 Y38.882451 Z-0.125000 I-3.015298 J-0.000000
G03 X67.336630 Y40.272110 Z-0.125000 I-5.440384 J-2.192471
G01 X66.322360 Y41.587270 Z-0.125000
G01 X64.469090 Y41.587270 Z-0.125000
G01 X62.615820 Y41.587270 Z-0.125000
G01 X62.615820 Y40.428420 Z-0.125000
G01 X62.615820 Y39.269580 Z-0.125000
G01 X63.994450 Y39.206280 Z-0.125000
G01 X65.373070 Y39.142980 Z-0.125000
G01 X65.438970 Y37.551410 Z-0.125000
G02 X65.449422 Y35.965769 Z-0.125000 I-22.807744 J-0.943190
G02 X65.380670 Y35.482980 Z-0.125000 I-2.155713 J0.060695
G02 X64.742615 Y34.808121 Z-0.125000 I-0.932952 J0.243015
G02 X61.887730 Y34.360770 Z-0.125000 I-2.854885 J8.885905
G02 X58.941871 Y34.747910 Z-0.125000 I-0.000000 J11.401502
G02 X58.234700 Y35.337790 Z-0.125000 I0.282994 J1.058096
G02 X58.096867 Y35.893968 Z-0.125000 I1.311619 J0.620215
G02 X57.983720 Y41.018570 Z-0.125000 I115.993525 J5.124602
G02 X58.591167 Y46.458349 Z-0.125000 I24.660740 J-0.000000
G02 X59.439230 Y47.454590 Z-0.125000 I1.374296 J-0.310804
G02 X61.600637 Y47.877797 Z-0.125000 I2.184538 J-5.425916
G02 X64.159950 Y47.473290 Z-0.125000 I0.032018 J-8.096060
G02 X64.821890 Y47.091398 Z-0.125000 I-0.583629 J-1.776237
G02 X65.336160 Y46.422580 Z-0.125000 I-1.518102 J-1.699430
G03 X65.895639 Y45.878424 Z-0.125000 I1.074151 J0.544705
G03 X67.022420 Y45.625540 Z-0.125000 I1.126781 J2.383864
G01 X68.304510 Y45.625540 Z-0.125000
G01 X68.127240 Y46.382880 Z-0.125000
G03 X66.476691 Y48.763578 Z-0.125000 I-3.837904 J-0.898321
G03 X62.639180 Y50.043830 Z-0.125000 I-4.265609 J-6.394485
G03 X58.179411 Y49.295757 Z-0.125000 I-0.572116 J-10.257114
G03 X55.870190 Y47.276410 Z-0.125000 I1.789011 J-4.375847
G01 X55.226470 Y46.156900 Z-0.125000
G01 X55.152770 Y41.543620 Z-0.125000
G03 X55.570625 Y35.622205 Z-0.125000 I34.387928 J-0.548809
G03 X56.354490 Y33.945670 Z-0.125000 I3.301669 J0.522182
G03 X57.824094 Y32.752530 Z-0.125000 I4.189290 J3.658363
G03 X59.780700 Y32.024990 Z-0.125000 I3.307311 J5.899736
G03 X62.857811 Y31.863000 Z-0.125000 I2.080097 J10.205954
G03 X65.420990 Y32.567450 Z-0.125000 I-0.741868 J7.714682
G01 X65.420950 Y32.567480 Z-0.125000
G00 Z5.000000

(End cutting path id: path555)


(Start cutting path id: path555)
(Change tool to Cylindrical cutter)

G00 Z5.000000
G00 X70.100590 Y31.083770

G01 Z-0.125000 F100.0(Penetrate)
G02 X69.798402 Y32.159680 Z-0.125000 I0.999897 J0.861231 F400.000000
G02 X71.516950 Y39.674420 Z-0.125000 I61.956298 J-10.214929
G02 X74.795907 Y50.493939 Z-0.125000 I676.449409 J-199.097737
G02 X75.012600 Y50.884400 Z-0.125000 I1.050283 J-0.327514
G02 X77.675262 Y52.094856 Z-0.125000 I2.640268 J-2.274065
G02 X81.726750 Y50.841400 Z-0.125000 I-0.047086 J-7.326644
G02 X82.171429 Y50.262431 Z-0.125000 I-0.644937 J-0.955600
G02 X84.998930 Y41.374780 Z-0.125000 I-177.840484 J-61.471430
G02 X87.207922 Y32.517407 Z-0.125000 I-112.923126 J-32.866698
G02 X87.102850 Y31.285860 Z-0.125000 I-2.110762 J-0.440172
G01 X86.884970 Y30.733690 Z-0.125000
G01 X84.400740 Y30.793790 Z-0.125000
G01 X81.916520 Y30.853890 Z-0.125000
G01 X81.348940 Y33.085590 Z-0.125000
G03 X80.767853 Y35.312945 Z-0.125000 I-181.136306 J-46.066586
G03 X80.687210 Y35.559600 Z-0.125000 I-2.295442 J-0.613972
G03 X80.523136 Y35.641884 Z-0.125000 I-0.127543 J-0.049597
G03 X78.336380 Y34.908390 Z-0.125000 I5.767535 J-20.821104
G03 X76.097966 Y33.986506 Z-0.125000 I32.602912 J-82.341194
G03 X75.945040 Y33.885080 Z-0.125000 I0.200216 J-0.467876
G03 X75.849444 Y33.732347 Z-0.125000 I0.258026 J-0.267783
G03 X75.430810 Y32.304600 Z-0.125000 I24.125967 J-7.849290
G01 X75.051270 Y30.853890 Z-0.125000
G01 X72.726600 Y30.793890 Z-0.125000
G02 X70.470540 Y30.888899 Z-0.125000 I-0.429557 J16.633272
G02 X70.100590 Y31.083760 Z-0.125000 I0.062690 J0.567631
G01 X70.100590 Y31.083770 Z-0.125000
G00 Z5.000000

(End cutting path id: path555)


(Start cutting path id: path555)
(Change tool to Cylindrical cutter)

G00 Z5.000000
G00 X70.660300 Y32.264640

G01 Z-0.125000 F100.0(Penetrate)
G02 X70.668387 Y32.943179 Z-0.125000 I1.414612 J0.322457 F400.000000
G02 X73.009230 Y41.542940 Z-0.125000 I242.639872 J-61.427753
G02 X75.682810 Y49.979997 Z-0.125000 I182.284068 J-53.121028
G02 X76.018300 Y50.322600 Z-0.125000 I0.527196 J-0.180686
G02 X76.535829 Y50.427824 Z-0.125000 I0.605526 J-1.652892
G02 X78.715490 Y50.457600 Z-0.125000 I1.499229 J-29.953469
G02 X80.850044 Y50.267961 Z-0.125000 I-0.369288 J-16.264586
G02 X81.269460 Y50.059770 Z-0.125000 I-0.119524 J-0.767361
G02 X81.611611 Y49.506504 Z-0.125000 I-0.912388 J-0.946670
G02 X84.051911 Y41.433121 Z-0.125000 I-389.206489 J-122.048943
G02 X86.314320 Y33.352534 Z-0.125000 I-394.818668 J-114.898629
G02 X86.393550 Y32.452210 Z-0.125000 I-2.506254 J-0.674203
G01 X86.328150 Y31.704080 Z-0.125000
G01 X84.465110 Y31.704080 Z-0.125000
G01 X82.602070 Y31.704080 Z-0.125000
G01 X81.951500 Y34.254590 Z-0.125000
G03 X81.280198 Y36.794257 Z-0.125000 I-146.823943 J-37.450954
G03 X81.231760 Y36.884960 Z-0.125000 I-0.223826 J-0.061244
G03 X79.684969 Y37.264474 Z-0.125000 I-1.041123 J-0.901422
G03 X75.299170 Y34.543030 Z-0.125000 I5.311211 J-13.454124
G03 X75.139314 Y34.306939 Z-0.125000 I0.400721 J-0.443491
G03 X74.737130 Y33.023900 Z-0.125000 I12.466733 J-4.612399
G01 X74.395670 Y31.704080 Z-0.125000
G01 X72.605890 Y31.642680 Z-0.125000
G01 X70.816120 Y31.581280 Z-0.125000
G01 X70.660300 Y32.264640 Z-0.125000
G00 Z5.000000

(End cutting path id: path555)


(Start cutting path id: path555)
(Change tool to Cylindrical cutter)

G00 Z5.000000
G00 X74.111070 Y33.217060

G01 Z-0.125000 F100.0(Penetrate)
G02 X74.468942 Y34.369863 Z-0.125000 I8.082717 J-1.877217 F400.000000
G02 X74.733480 Y34.803870 Z-0.125000 I1.369763 J-0.537281
G02 X75.138467 Y35.112278 Z-0.125000 I0.967163 J-0.849923
G02 X77.946080 Y36.363060 Z-0.125000 I20.497160 J-42.233207
G01 X80.813620 Y37.529600 Z-0.125000
G01 X78.359110 Y37.539600 Z-0.125000
G02 X75.968437 Y37.687899 Z-0.125000 I0.087144 J20.748531
G02 X75.629700 Y37.868460 Z-0.125000 I0.063378 J0.526920
G02 X75.528790 Y38.228250 Z-0.125000 I0.334077 J0.287744
G02 X76.272160 Y41.747360 Z-0.125000 I40.299272 J-6.674669
G02 X77.976618 Y47.265276 Z-0.125000 I59.035971 J-15.213728
G02 X78.366400 Y47.538810 Z-0.125000 I0.389782 J-0.140949
G02 X78.844614 Y47.454854 Z-0.125000 I0.000000 J-1.403933
G02 X79.099700 Y47.273130 Z-0.125000 I-0.198960 J-0.549174
G02 X79.364876 Y46.757746 Z-0.125000 I-1.105358 J-0.894642
G02 X80.477933 Y42.494685 Z-0.125000 I-145.676746 J-40.312049
G02 X81.471772 Y38.165378 Z-0.125000 I-142.228824 J-34.928893
G02 X81.396700 Y37.919850 Z-0.125000 I-0.258450 J-0.055218
G03 X81.342339 Y37.719176 Z-0.125000 I0.140419 J-0.145738
G03 X81.552560 Y37.367150 Z-0.125000 I0.757726 J0.213713
G02 X81.815068 Y36.956288 Z-0.125000 I-0.733348 J-0.757842
G02 X82.544900 Y34.519090 Z-0.125000 I-27.116835 J-9.448159
G01 X83.173290 Y32.023200 Z-0.125000
G01 X84.474970 Y32.023200 Z-0.125000
G01 X85.776660 Y32.023200 Z-0.125000
G01 X85.776660 Y32.744710 Z-0.125000
G03 X85.703738 Y33.454907 Z-0.125000 I-3.494833 J-0.000000
G03 X85.346560 Y34.817000 Z-0.125000 I-13.310681 J-2.762551
G02 X84.931603 Y36.172378 Z-0.125000 I60.530047 J19.272856
G02 X83.012380 Y42.756600 Z-0.125000 I1425.281315 J419.024442
G03 X80.998785 Y49.269733 Z-0.125000 I-176.859573 J-51.109934
G03 X80.753370 Y49.611100 Z-0.125000 I-0.664948 J-0.219144
G03 X80.361253 Y49.765065 Z-0.125000 I-0.475956 J-0.635861
G03 X78.250450 Y49.876780 Z-0.125000 I-2.110803 J-19.885379
G01 X76.102460 Y49.876780 Z-0.125000
G01 X75.768410 Y48.760930 Z-0.125000
G03 X71.350404 Y33.542941 Z-0.125000 I911.112889 J-272.759768
G03 X71.218400 Y32.586210 Z-0.125000 I3.401067 J-0.956731
G03 X71.441883 Y32.246675 Z-0.125000 I0.369667 J0.000000
G03 X72.526060 Y32.023200 Z-0.125000 I1.084177 J2.518173
G01 X73.833720 Y32.023200 Z-0.125000
G01 X74.111070 Y33.217060 Z-0.125000
G00 Z5.000000

(End cutting path id: path555)


(Start cutting path id: path555)
(Change tool to Cylindrical cutter)

G00 Z5.000000
G00 X74.966770 Y32.973390

G01 Z-0.125000 F100.0(Penetrate)
G02 X75.328363 Y34.109640 Z-0.125000 I9.034748 J-2.249501 F400.000000
G02 X75.500460 Y34.340470 Z-0.125000 I0.505565 J-0.197358
G02 X78.416543 Y36.017801 Z-0.125000 I7.421425 J-9.528827
G02 X80.837690 Y36.486280 Z-0.125000 I2.421147 J-6.022131
G02 X81.003147 Y36.370077 Z-0.125000 I0.000000 J-0.175895
G02 X81.733940 Y34.002010 Z-0.125000 I-24.857317 J-8.967846
G03 X83.027652 Y32.003776 Z-0.125000 I3.640289 J0.938915
G03 X85.059780 Y31.344900 Z-0.125000 I1.889825 J2.365444
G01 X86.658980 Y31.420100 Z-0.125000
G01 X86.658980 Y32.417580 Z-0.125000
G03 X86.535397 Y33.397373 Z-0.125000 I-3.945802 J-0.000000
G03 X84.579460 Y40.529890 Z-0.125000 I-214.371553 J-54.952275
G02 X82.513081 Y47.648355 Z-0.125000 I1933.396127 J565.093811
G02 X82.236410 Y48.657270 Z-0.125000 I38.565399 J11.118036
G03 X81.847591 Y49.589138 Z-0.125000 I-3.484692 J-0.906927
G03 X81.321180 Y50.198200 Z-0.125000 I-1.967908 J-1.168840
G03 X80.598868 Y50.526951 Z-0.125000 I-0.993888 J-1.225823
G03 X78.315170 Y50.723340 Z-0.125000 I-2.265531 J-12.968508
G03 X75.981019 Y50.648711 Z-0.125000 I0.059302 J-38.394158
G03 X75.698940 Y50.559610 Z-0.125000 I0.038232 J-0.612098
G03 X75.405167 Y50.183226 Z-0.125000 I0.355622 J-0.580408
G03 X71.406910 Y36.898330 Z-0.125000 I548.275466 J-172.254519
G03 X70.427473 Y32.946436 Z-0.125000 I52.422589 J-15.089733
G03 X70.422350 Y32.177730 Z-0.125000 I1.903747 J-0.397057
G01 X70.573360 Y31.402150 Z-0.125000
G01 X72.384790 Y31.340550 Z-0.125000
G03 X74.148134 Y31.394385 Z-0.125000 I0.465028 J13.673863
G03 X74.434570 Y31.535990 Z-0.125000 I-0.042574 J0.446619
G03 X74.612617 Y31.825644 Z-0.125000 I-0.638359 J0.591939
G03 X74.966770 Y32.973340 Z-0.125000 I-10.188559 J3.772452
G01 X74.966770 Y32.973390 Z-0.125000
G00 Z5.000000

(End cutting path id: path555)


(Start cutting path id: path555)
(Change tool to Cylindrical cutter)

G00 Z5.000000
G00 X76.507630 Y38.664840

G01 Z-0.125000 F100.0(Penetrate)
G02 X76.535148 Y38.926751 Z-0.125000 I1.054194 J0.021642 F400.000000
G02 X77.327600 Y42.171800 Z-0.125000 I168.934812 J-39.535189
G02 X78.213946 Y45.197554 Z-0.125000 I42.656174 J-10.852736
G02 X78.504733 Y45.400084 Z-0.125000 I0.280936 J-0.093344
G02 X78.793939 Y45.181437 Z-0.125000 I-0.010469 J-0.314439
G02 X79.664330 Y42.094000 Z-0.125000 I-44.158656 J-14.115348
G02 X80.394953 Y38.788648 Z-0.125000 I-72.640542 J-17.790065
G02 X80.356660 Y38.587040 Z-0.125000 I-0.269625 J-0.053229
G02 X80.094955 Y38.432516 Z-0.125000 I-0.284039 J0.182179
G02 X78.359875 Y38.392577 Z-0.125000 I-1.329276 J20.039398
G02 X76.652434 Y38.505670 Z-0.125000 I0.376521 J18.630413
G02 X76.507630 Y38.664840 Z-0.125000 I0.018237 J0.162043
G01 X76.507630 Y38.664840 Z-0.125000
G00 Z5.000000

(End cutting path id: path555)


(Start cutting path id: path555)
(Change tool to Cylindrical cutter)

G00 Z5.000000
G00 X79.722530 Y39.302470

G01 Z-0.125000 F100.0(Penetrate)
G02 X79.646329 Y39.570497 Z-0.125000 I4.271860 J1.359348 F400.000000
G02 X79.149150 Y41.587310 Z-0.125000 I239.138484 J60.021444
G03 X78.614865 Y43.581989 Z-0.125000 I-41.431129 J-10.028636
G03 X78.507050 Y43.771410 Z-0.125000 I-0.455659 J-0.133960
G03 X78.402475 Y43.749484 Z-0.125000 I-0.045675 J-0.042502
G03 X77.875870 Y41.964790 Z-0.125000 I17.875848 J-6.244619
G02 X77.389814 Y39.995428 Z-0.125000 I-234.674058 J56.874941
G02 X77.260320 Y39.515010 Z-0.125000 I-14.098718 J3.542578
G03 X77.394559 Y39.241484 Z-0.125000 I0.217916 J-0.062757
G03 X78.464880 Y39.036790 Z-0.125000 I1.070321 J2.695954
G03 X79.639303 Y39.159481 Z-0.125000 I-0.000000 J5.682250
G03 X79.722530 Y39.302470 Z-0.125000 I-0.023054 J0.109135
G01 X79.722530 Y39.302470 Z-0.125000
G00 Z5.000000

(End cutting path id: path555)


(Start cutting path id: path555)
(Change tool to Cylindrical cutter)

G00 Z5.000000
G00 X80.833780 Y38.558570

G01 Z-0.125000 F100.0(Penetrate)
G02 X80.724927 Y38.933666 Z-0.125000 I6.366627 J2.050939 F400.000000
G02 X79.727350 Y42.833930 Z-0.125000 I686.457774 J177.654158
G03 X78.555328 Y46.798560 Z-0.125000 I-50.278890 J-12.707870
G03 X78.365650 Y46.844640 Z-0.125000 I-0.109465 J-0.037165
G03 X77.008196 Y44.546402 Z-0.125000 I3.466343 J-3.597404
G03 X76.076760 Y38.346030 Z-0.125000 I26.617112 J-7.168639
G03 X76.151195 Y38.263791 Z-0.125000 I0.079638 J-0.002724
G03 X78.512400 Y38.186620 Z-0.125000 I2.361205 J36.084306
G03 X80.713139 Y38.361830 Z-0.125000 I0.000000 J13.908884
G03 X80.833780 Y38.558570 Z-0.125000 I-0.024054 J0.150109
G01 X80.833780 Y38.558570 Z-0.125000
G00 Z5.000000

(End cutting path id: path555)


(Start cutting path id: path555)
(Change tool to Cylindrical cutter)

G00 Z5.000000
G00 X69.600090 Y20.434320

G01 Z-0.125000 F100.0(Penetrate)
G03 X70.175923 Y21.262922 Z-0.125000 I-0.780907 J1.157074 F400.000000
G03 X70.115730 Y22.564140 Z-0.125000 I-2.261046 J0.547408
G03 X69.529214 Y23.248276 Z-0.125000 I-1.152848 J-0.394866
G03 X67.700100 Y23.832030 Z-0.125000 I-2.571024 J-4.898440
G02 X66.484303 Y24.338856 Z-0.125000 I0.342957 J2.534369
G02 X66.145100 Y25.027490 Z-0.125000 I0.529415 J0.688634
G02 X66.513831 Y25.702924 Z-0.125000 I0.802988 J0.000000
G02 X67.769190 Y26.071660 Z-0.125000 I1.255359 J-1.952560
G02 X68.918846 Y25.757296 Z-0.125000 I-0.000000 J-2.259380
G02 X69.233210 Y25.206310 Z-0.125000 I-0.325676 J-0.550986
G03 X69.310826 Y25.086556 Z-0.125000 I0.131193 J0.000000
G03 X69.674370 Y25.008940 Z-0.125000 I0.363544 J0.812591
G03 X70.026404 Y25.402271 Z-0.125000 I0.000000 J0.354202
G03 X69.534340 Y26.268770 Z-0.125000 I-1.254510 J-0.139441
G03 X68.905021 Y26.566164 Z-0.125000 I-1.022334 J-1.348819
G03 X67.689160 Y26.709290 Z-0.125000 I-1.215861 J-5.092848
G03 X65.863186 Y26.108880 Z-0.125000 I0.000000 J-3.076792
G03 X65.262780 Y24.920190 Z-0.125000 I0.876487 J-1.188690
G03 X65.782409 Y23.810159 Z-0.125000 I1.445437 J-0.000000
G03 X67.492260 Y23.060720 Z-0.125000 I2.147984 J2.575403
G02 X68.904451 Y22.543023 Z-0.125000 I-0.449494 J-3.411105
G02 X69.233210 Y21.940560 Z-0.125000 I-0.387639 J-0.602463
G02 X68.810116 Y21.144781 Z-0.125000 I-0.959919 J-0.000000
G02 X67.540860 Y20.798910 Z-0.125000 I-1.143779 J1.695515
G02 X66.585583 Y21.023751 Z-0.125000 I0.178317 J2.899368
G02 X66.258230 Y21.342580 Z-0.125000 I0.245736 J0.579772
G03 X65.646626 Y21.759587 Z-0.125000 I-0.649646 J-0.295796
G03 X65.262780 Y21.395680 Z-0.125000 I-0.019422 J-0.363907
G03 X65.740184 Y20.597829 Z-0.125000 I0.905399 J-0.000000
G03 X67.640080 Y20.120420 Z-0.125000 I1.899896 J3.541712
G03 X69.099538 Y20.236535 Z-0.125000 I-0.000000 J9.230069
G03 X69.600090 Y20.434280 Z-0.125000 I-0.197228 J1.231641
G01 X69.600090 Y20.434320 Z-0.125000
G00 Z5.000000

(End cutting path id: path555)


(Start cutting path id: path555)
(Change tool to Cylindrical cutter)

G00 Z5.000000
G00 X61.954080 Y22.967050

G01 Z-0.125000 F100.0(Penetrate)
G02 X62.486120 Y25.539622 Z-0.125000 I6.485599 J-0.000000 F400.000000
G02 X63.295600 Y26.071660 Z-0.125000 I0.809480 J-0.349782
G03 X63.817206 Y26.193752 Z-0.125000 I0.000000 J1.175261
G03 X63.939300 Y26.390470 Z-0.125000 I-0.097429 J0.196718
G03 X63.789871 Y26.559856 Z-0.125000 I-0.170719 J0.000000
G03 X61.402630 Y26.709290 Z-0.125000 I-2.387241 J-18.993667
G03 X59.015405 Y26.559862 Z-0.125000 I-0.000000 J-19.143553
G03 X58.865970 Y26.390470 Z-0.125000 I0.021290 J-0.169392
G03 X58.977553 Y26.178277 Z-0.125000 I0.257551 J0.000000
G03 X59.362270 Y26.049060 Z-0.125000 I0.418296 J0.608076
G02 X60.221681 Y25.480099 Z-0.125000 I-0.045652 J-1.002504
G02 X60.802260 Y23.042920 Z-0.125000 I-5.347714 J-2.561662
G01 X60.863660 Y20.120460 Z-0.125000
G01 X61.408890 Y20.120460 Z-0.125000
G01 X61.954110 Y20.120460 Z-0.125000
G01 X61.954080 Y22.967050 Z-0.125000
G00 Z5.000000

(End cutting path id: path555)


(Start cutting path id: path555)
(Change tool to Cylindrical cutter)

G00 Z5.000000
G00 X55.957940 Y24.743270

G01 Z-0.125000 F100.0(Penetrate)
G03 X55.718340 Y25.151155 Z-0.125000 I-0.586148 J-0.070000 F400.000000
G03 X55.060970 Y25.393730 Z-0.125000 I-0.760351 J-1.048513
G03 X54.449613 Y25.225982 Z-0.125000 I-0.073976 J-0.928309
G03 X54.233790 Y24.809230 Z-0.125000 I0.294459 J-0.416752
G03 X54.453515 Y24.378480 Z-0.125000 I0.532085 J-0.000000
G03 X55.130760 Y24.158770 Z-0.125000 I0.677245 J0.933933
G03 X55.791356 Y24.368621 Z-0.125000 I0.000000 J1.144680
G03 X55.957940 Y24.743270 Z-0.125000 I-0.231181 J0.327152
G01 X55.957940 Y24.743270 Z-0.125000
G00 Z5.000000

(End cutting path id: path555)


(Start cutting path id: path555)
(Change tool to Cylindrical cutter)

G00 Z5.000000
G00 X53.765060 Y24.158770

G01 Z-0.125000 F100.0(Penetrate)
G03 X53.726759 Y24.795324 Z-0.125000 I-18.983135 J-0.822765 F400.000000
G03 X53.695360 Y25.062080 Z-0.125000 I-3.324305 J-0.256071
G02 X54.198443 Y25.891331 Z-0.125000 I0.741060 J0.117649
G02 X56.094410 Y25.864380 Z-0.125000 I0.909515 J-2.719644
G02 X56.482087 Y25.532642 Z-0.125000 I-0.251375 J-0.686157
G02 X56.660220 Y24.844170 Z-0.125000 I-1.241383 J-0.688472
G02 X56.225948 Y23.955418 Z-0.125000 I-1.126565 J0.000000
G02 X54.961760 Y23.521150 Z-0.125000 I-1.264188 J1.622939
G02 X54.018366 Y23.756804 Z-0.125000 I0.000000 J2.006169
G02 X53.765110 Y24.158770 Z-0.125000 I0.225205 J0.422653
G01 X53.765060 Y24.158770 Z-0.125000
G00 Z5.000000

(End cutting path id: path555)


(Start cutting path id: path555)
(Change tool to Cylindrical cutter)

G00 Z5.000000
G00 X34.210413 Y4.020390

G01 Z-0.125000 F100.0(Penetrate)
G01 X34.271313 Y7.261670 Z-0.125000 F400.000000
G01 X37.524863 Y7.320470 Z-0.125000
G01 X40.778413 Y7.379270 Z-0.125000
G01 X40.778413 Y8.967660 Z-0.125000
G01 X40.778413 Y10.556050 Z-0.125000
G01 X37.460443 Y10.556050 Z-0.125000
G01 X34.142463 Y10.556050 Z-0.125000
G01 X34.206863 Y12.203260 Z-0.125000
G01 X34.271263 Y13.850460 Z-0.125000
G01 X37.965973 Y13.908760 Z-0.125000
G01 X41.660683 Y13.967060 Z-0.125000
G01 X41.660683 Y15.662260 Z-0.125000
G01 X41.660683 Y17.357470 Z-0.125000
G01 X35.815323 Y17.357470 Z-0.125000
G01 X29.969963 Y17.357470 Z-0.125000
G01 X29.969963 Y9.068300 Z-0.125000
G01 X29.969963 Y0.779130 Z-0.125000
G01 X32.059723 Y0.779130 Z-0.125000
G01 X34.149483 Y0.779130 Z-0.125000
G01 X34.210413 Y4.020390 Z-0.125000
G00 Z5.000000

(End cutting path id: path555)


(Start cutting path id: path555)
(Change tool to Cylindrical cutter)

G00 Z5.000000
G00 X33.278693 Y4.817430

G01 Z-0.125000 F100.0(Penetrate)
G01 X33.278693 Y8.005570 Z-0.125000 F400.000000
G01 X36.587393 Y8.005570 Z-0.125000
G01 X39.896083 Y8.005570 Z-0.125000
G01 X39.896083 Y8.850060 Z-0.125000
G01 X39.896083 Y9.694540 Z-0.125000
G01 X36.642533 Y9.753340 Z-0.125000
G01 X33.388983 Y9.812140 Z-0.125000
G01 X33.388983 Y12.256380 Z-0.125000
G01 X33.388983 Y14.700620 Z-0.125000
G01 X37.083693 Y14.758920 Z-0.125000
G01 X40.778403 Y14.817220 Z-0.125000
G01 X40.778403 Y15.662250 Z-0.125000
G01 X40.778403 Y16.507290 Z-0.125000
G01 X35.815363 Y16.507290 Z-0.125000
G01 X30.852313 Y16.507290 Z-0.125000
G01 X30.852313 Y9.068290 Z-0.125000
G01 X30.852313 Y1.629300 Z-0.125000
G01 X32.065503 Y1.629300 Z-0.125000
G01 X33.278693 Y1.629300 Z-0.125000
G01 X33.278693 Y4.817430 Z-0.125000
G00 Z5.000000

(End cutting path id: path555)


(Start cutting path id: path555)
(Change tool to Cylindrical cutter)

G00 Z5.000000
G00 X30.466303 Y1.127950

G01 Z-0.125000 F100.0(Penetrate)
G02 X30.324896 Y1.330163 Z-0.125000 I0.085103 J0.210061 F400.000000
G02 X30.190573 Y9.085990 Z-0.125000 I223.843758 J7.755827
G01 X30.190573 Y16.932360 Z-0.125000
G01 X35.825883 Y16.932360 Z-0.125000
G01 X41.461193 Y16.932360 Z-0.125000
G01 X41.395493 Y15.603970 Z-0.125000
G01 X41.329793 Y14.275580 Z-0.125000
G01 X37.524793 Y14.217380 Z-0.125000
G01 X33.719793 Y14.159280 Z-0.125000
G01 X33.719793 Y12.251410 Z-0.125000
G01 X33.719793 Y10.343550 Z-0.125000
G01 X37.138773 Y10.343550 Z-0.125000
G01 X40.557763 Y10.343550 Z-0.125000
G01 X40.557763 Y8.962020 Z-0.125000
G01 X40.557763 Y7.580490 Z-0.125000
G01 X37.144583 Y7.580490 Z-0.125000
G01 X33.731343 Y7.580490 Z-0.125000
G01 X33.670443 Y4.339210 Z-0.125000
G01 X33.609543 Y1.097940 Z-0.125000
G01 X32.175773 Y1.057140 Z-0.125000
G02 X30.751131 Y1.066037 Z-0.125000 I-0.584433 J20.482965
G02 X30.466283 Y1.127940 Z-0.125000 I0.034722 J0.846091
G01 X30.466303 Y1.127950 Z-0.125000
G00 Z5.000000

(End cutting path id: path555)


(Start cutting path id: path555)
(Change tool to Cylindrical cutter)

G00 Z5.000000
G00 X29.638423 Y0.435280

G01 Z-0.125000 F100.0(Penetrate)
G02 X29.465519 Y0.756617 Z-0.125000 I0.236339 J0.334355 F400.000000
G02 X29.360443 Y9.174550 Z-0.125000 I217.814744 J6.928476
G01 X29.418543 Y17.676260 Z-0.125000
G01 X35.815353 Y17.676260 Z-0.125000
G01 X42.212173 Y17.676260 Z-0.125000
G01 X42.212173 Y15.550830 Z-0.125000
G01 X42.212173 Y13.425410 Z-0.125000
G01 X38.407173 Y13.367210 Z-0.125000
G01 X34.602173 Y13.309010 Z-0.125000
G01 X34.602173 Y12.256850 Z-0.125000
G01 X34.602173 Y11.204690 Z-0.125000
G01 X37.966013 Y11.145990 Z-0.125000
G01 X41.329853 Y11.087290 Z-0.125000
G01 X41.329853 Y8.961860 Z-0.125000
G01 X41.329853 Y6.836430 Z-0.125000
G01 X37.966013 Y6.777730 Z-0.125000
G01 X34.602173 Y6.719030 Z-0.125000
G01 X34.602173 Y3.536420 Z-0.125000
G02 X34.373647 Y0.578037 Z-0.125000 I-19.263123 J-0.000000
G02 X34.105863 Y0.344050 Z-0.125000 I-0.273225 J0.042465
G03 X33.609663 Y0.331061 Z-0.125000 I0.578565 J-31.586187
G03 X31.792023 Y0.265850 Z-0.125000 I16.869291 J-495.566263
G02 X30.005656 Y0.302267 Z-0.125000 I-0.579300 J15.415111
G02 X29.638413 Y0.435020 Z-0.125000 I0.057583 J0.733635
G01 X29.638423 Y0.435280 Z-0.125000
G00 Z5.000000

(End cutting path id: path555)


(Start cutting path id: path555)
(Change tool to Cylindrical cutter)

G00 Z5.000000
G00 X25.747823 Y22.352200

G01 Z-0.125000 F100.0(Penetrate)
G02 X27.182532 Y24.505969 Z-0.125000 I36.461417 J-22.733616 F400.000000
G02 X27.333503 Y24.583900 Z-0.125000 I0.150971 J-0.107269
G02 X28.198761 Y24.136141 Z-0.125000 I0.000000 J-1.059901
G02 X28.646523 Y22.727950 Z-0.125000 I-1.990469 J-1.408191
G02 X28.545879 Y22.559116 Z-0.125000 I-0.191934 J0.000000
G02 X28.148133 Y22.458470 Z-0.125000 I-0.397746 J0.735605
G03 X27.710731 Y22.346249 Z-0.125000 I0.000000 J-0.908534
G03 X27.374233 Y22.033390 Z-0.125000 I0.452879 J-0.824490
G03 X27.443102 Y21.795485 Z-0.125000 I0.137501 J-0.089117
G03 X28.295793 Y21.608300 Z-0.125000 I0.852691 J1.848561
G02 X29.368459 Y21.380715 Z-0.125000 I-0.000000 J-2.641665
G02 X29.969993 Y20.864400 Z-0.125000 I-0.560638 J-1.261740
G03 X30.527418 Y20.267372 Z-0.125000 I1.911761 J1.226208
G03 X30.971443 Y20.120500 Z-0.125000 I0.444025 J0.597756
G03 X31.106472 Y20.331860 Z-0.125000 I0.000000 J0.148812
G03 X29.666933 Y22.936690 Z-0.125000 I-19.012116 J-8.806707
G02 X27.848233 Y25.759034 Z-0.125000 I399.524537 J259.448099
G02 X27.612713 Y26.149350 Z-0.125000 I7.393278 J4.727389
G03 X27.379379 Y26.169496 Z-0.125000 I-0.123604 J-0.070270
G03 X25.645683 Y23.762340 Z-0.125000 I17.617037 J-14.516146
G01 X23.904053 Y20.978880 Z-0.125000
G01 X21.643113 Y20.974880 Z-0.125000
G02 X19.922322 Y21.506611 Z-0.125000 I-0.006058 J3.030679
G02 X19.760603 Y22.266370 Z-0.125000 I0.319081 J0.465009
G02 X20.257883 Y22.671379 Z-0.125000 I0.825975 J-0.506361
G02 X21.472173 Y22.883660 Z-0.125000 I1.214290 J-3.366857
G03 X22.717419 Y23.045421 Z-0.125000 I-0.000000 J4.873880
G03 X23.080833 Y23.308740 Z-0.125000 I-0.159087 J0.601998
G03 X22.985164 Y23.532076 Z-0.125000 I-0.122767 J0.079569
G03 X20.825573 Y23.733830 Z-0.125000 I-2.159591 J-11.457338
G03 X18.403647 Y23.548877 Z-0.125000 I-0.000000 J-15.949801
G03 X18.058693 Y23.308740 Z-0.125000 I0.072511 J-0.471991
G03 X18.052487 Y23.018946 Z-0.125000 I0.271466 J-0.150777
G03 X18.271513 Y22.883660 Z-0.125000 I0.219026 J0.109656
G02 X18.691952 Y22.562497 Z-0.125000 I0.000000 J-0.435783
G02 X18.535153 Y21.916590 Z-0.125000 I-0.663561 J-0.180901
G03 X18.365687 Y21.702680 Z-0.125000 I1.387535 J-1.273334
G03 X17.855423 Y20.917640 Z-0.125000 I18.341629 J-12.480120
G01 X17.360973 Y20.120600 Z-0.125000
G01 X20.858673 Y20.120600 Z-0.125000
G01 X24.356373 Y20.120600 Z-0.125000
G01 X25.747823 Y22.352300 Z-0.125000
G01 X25.747823 Y22.352200 Z-0.125000
G00 Z5.000000

(End cutting path id: path555)


(Start cutting path id: path555)
(Change tool to Cylindrical cutter)

G00 Z5.000000
G00 X25.117273 Y25.948000

G01 Z-0.125000 F100.0(Penetrate)
G02 X25.130543 Y26.034355 Z-0.125000 I0.287614 J0.000000 F400.000000
G02 X25.251163 Y26.373090 Z-0.125000 I4.618605 J-1.453794
G03 X25.148493 Y26.548870 Z-0.125000 I-0.119997 J0.047786
G03 X22.767553 Y26.709290 Z-0.125000 I-2.380940 J-17.588688
G03 X20.250053 Y26.525319 Z-0.125000 I-0.000000 J-17.317003
G03 X19.874553 Y26.284200 Z-0.125000 I0.078683 J-0.535481
G03 X19.972021 Y26.061842 Z-0.125000 I0.121992 J-0.079067
G03 X22.358163 Y25.859120 Z-0.125000 I2.386142 J13.941695
G03 X25.073534 Y25.902850 Z-0.125000 I0.000000 J84.326674
G01 X25.117273 Y25.948020 Z-0.125000
G01 X25.117273 Y25.948000 Z-0.125000
G00 Z5.000000

(End cutting path id: path555)


(Start cutting path id: path555)
(Change tool to Cylindrical cutter)

G00 Z5.000000
G00 X18.822883 Y25.446300

G01 Z-0.125000 F100.0(Penetrate)
G02 X18.802235 Y25.669154 Z-0.125000 I0.204808 J0.131360 F400.000000
G02 X19.254153 Y26.509010 Z-0.125000 I4.093956 J-1.661402
G01 X19.829623 Y27.346910 Z-0.125000
G01 X22.921523 Y27.346910 Z-0.125000
G02 X25.563237 Y26.744602 Z-0.125000 I0.000000 J-6.094416
G02 X25.782473 Y25.970780 Z-0.125000 I-0.232763 J-0.483913
G01 X25.301873 Y25.221490 Z-0.125000
G01 X22.134473 Y25.221490 Z-0.125000
G02 X19.024734 Y25.326889 Z-0.125000 I0.000000 J45.928269
G02 X18.822883 Y25.446300 Z-0.125000 I0.017655 J0.260152
G01 X18.822883 Y25.446300 Z-0.125000
G00 Z5.000000

(End cutting path id: path555)


(Start cutting path id: path555)
(Change tool to Cylindrical cutter)

G00 Z5.000000
G00 X16.514633 Y19.753710

G01 Z-0.125000 F100.0(Penetrate)
G02 X16.579341 Y20.014589 Z-0.125000 I0.558234 J0.000000 F400.000000
G02 X17.275483 Y21.193060 Z-0.125000 I12.796622 J-6.764319
G01 X18.036343 Y22.352200 Z-0.125000
G01 X17.496063 Y22.419500 Z-0.125000
G02 X17.232951 Y22.702259 Z-0.125000 I0.037146 J0.298359
G02 X17.437563 Y23.545430 Z-0.125000 I1.515181 J0.078725
G01 X17.919343 Y24.371410 Z-0.125000
G01 X20.966843 Y24.371410 Z-0.125000
G02 X23.443978 Y23.818712 Z-0.125000 I-0.000000 J-5.827479
G02 X23.683243 Y23.095730 Z-0.125000 I-0.223016 J-0.474887
G02 X23.223288 Y22.683201 Z-0.125000 I-0.800073 J0.429371
G02 X21.999513 Y22.415520 Z-0.125000 I-1.398194 J3.460976
G03 X20.738770 Y22.187178 Z-0.125000 I0.226441 J-4.844893
G03 X20.318483 Y21.874030 Z-0.125000 I0.248918 J-0.772696
G01 X19.990093 Y21.395810 Z-0.125000
G01 X21.670603 Y21.395810 Z-0.125000
G01 X23.351103 Y21.395810 Z-0.125000
G01 X24.179023 Y22.691540 Z-0.125000
G02 X27.150273 Y27.122994 Z-0.125000 I101.862288 J-65.085920
G02 X27.376953 Y27.240730 Z-0.125000 I0.226680 J-0.159349
G02 X27.585366 Y27.140087 Z-0.125000 I0.000000 J-0.266113
G02 X28.811323 Y25.434120 Z-0.125000 I-17.172115 J-13.633867
G01 X31.079183 Y21.936050 Z-0.125000
G02 X31.653454 Y20.035148 Z-0.125000 I-2.995798 J-1.942240
G02 X31.107583 Y19.482920 Z-0.125000 I-0.545871 J-0.006321
G02 X30.169627 Y19.704859 Z-0.125000 I0.000000 J2.092957
G02 X29.623653 Y20.226820 Z-0.125000 I0.576033 J1.149060
G03 X29.063527 Y20.724654 Z-0.125000 I-0.996098 J-0.556712
G03 X27.824283 Y20.970720 Z-0.125000 I-1.239244 J-2.997529
G02 X26.586032 Y21.116068 Z-0.125000 I0.000000 J5.347152
G02 X26.440673 Y21.300090 Z-0.125000 I0.043805 J0.184022
G02 X26.790225 Y22.450565 Z-0.125000 I2.068046 J-0.000000
G02 X27.526253 Y22.921650 Z-0.125000 I0.907708 J-0.607680
G03 X27.714693 Y23.085695 Z-0.125000 I-0.037016 J0.232774
G03 X27.663133 Y23.370620 Z-0.125000 I-0.302852 J0.092324
G03 X27.389364 Y23.383788 Z-0.125000 I-0.142453 J-0.109188
G03 X26.078813 Y21.670280 Z-0.125000 I8.134838 J-7.579742
G01 X24.786323 Y19.589190 Z-0.125000
G01 X20.650453 Y19.531390 Z-0.125000
G02 X16.650226 Y19.610674 Z-0.125000 I-0.827342 J59.211031
G02 X16.514593 Y19.753780 Z-0.125000 I0.007679 J0.143106
G01 X16.514633 Y19.753710 Z-0.125000
G00 Z5.000000

(End cutting path id: path555)


(Start cutting path id: path555)
(Change tool to Cylindrical cutter)

G00 Z5.000000
G00 X14.308733 Y31.066570

G01 Z-0.125000 F100.0(Penetrate)
G02 X14.018717 Y32.140815 Z-0.125000 I0.974523 J0.839364 F400.000000
G02 X16.282833 Y41.694660 Z-0.125000 I98.460119 J-18.288347
G02 X18.820224 Y50.159122 Z-0.125000 I446.243536 J-129.157827
G02 X19.067763 Y50.673510 Z-0.125000 I1.851665 J-0.574322
G02 X19.501767 Y50.945209 Z-0.125000 I0.525205 J-0.356464
G02 X22.361603 Y51.151730 Z-0.125000 I2.859836 J-19.697773
G02 X24.922315 Y51.006829 Z-0.125000 I0.000000 J-22.699110
G02 X26.175051 Y50.267321 Z-0.125000 I-0.201135 J-1.771553
G02 X26.956343 Y48.676529 Z-0.125000 I-4.513651 J-3.204063
G02 X29.000133 Y41.799850 Z-0.125000 I-500.575329 J-152.516047
G02 X31.335977 Y32.079442 Z-0.125000 I-103.943765 J-30.118864
G02 X31.062533 Y31.054420 Z-0.125000 I-1.196824 J-0.229709
G02 X30.737183 Y30.880943 Z-0.125000 I-0.386361 J0.332776
G02 X28.516983 Y30.747640 Z-0.125000 I-2.220200 J18.422445
G02 X26.589117 Y31.468333 Z-0.125000 I-0.000000 J2.938884
G02 X25.337833 Y33.510690 Z-0.125000 I2.610926 J3.004116
G03 X24.816721 Y35.522504 Z-0.125000 I-107.306188 J-26.721709
G03 X24.758193 Y35.664830 Z-0.125000 I-0.585304 J-0.157492
G03 X23.848165 Y35.992601 Z-0.125000 I-0.646571 J-0.367956
G03 X20.134733 Y33.914020 Z-0.125000 I5.099666 J-13.467022
G03 X19.965320 Y33.683108 Z-0.125000 I0.318002 J-0.410910
G03 X19.613883 Y32.503630 Z-0.125000 I9.001820 J-3.324281
G02 X19.275507 Y31.307643 Z-0.125000 I-12.045491 J2.762120
G02 X19.110023 Y31.013320 Z-0.125000 I-0.864044 J0.292128
G02 X16.752045 Y29.929922 Z-0.125000 I-2.324415 J1.951282
G02 X14.308733 Y31.066620 Z-0.125000 I0.036188 J3.272064
G01 X14.308733 Y31.066570 Z-0.125000
G00 Z5.000000

(End cutting path id: path555)


(Start cutting path id: path555)
(Change tool to Cylindrical cutter)

G00 Z5.000000
G00 X14.897053 Y31.739500

G01 Z-0.125000 F100.0(Penetrate)
G02 X14.745125 Y32.250931 Z-0.125000 I0.375679 J0.389882 F400.000000
G02 X17.167773 Y41.596210 Z-0.125000 I172.779988 J-39.804407
G02 X19.705898 Y49.890607 Z-0.125000 I259.321686 J-74.818129
G02 X19.967183 Y50.245220 Z-0.125000 I0.662148 J-0.214316
G02 X22.131921 Y50.930740 Z-0.125000 I2.163158 J-3.070159
G02 X25.109923 Y50.242220 Z-0.125000 I-0.002859 J-6.796881
G02 X25.505901 Y49.795410 Z-0.125000 I-0.342455 J-0.702365
G02 X28.325983 Y40.949370 Z-0.125000 I-178.599408 J-61.809301
G02 X30.492142 Y32.926831 Z-0.125000 I-196.262125 J-57.296274
G02 X30.503103 Y32.181990 Z-0.125000 I-1.594584 J-0.395967
G02 X30.184927 Y31.834670 Z-0.125000 I-0.457065 J0.099313
G02 X28.623533 Y31.597500 Z-0.125000 I-1.561394 J5.021085
G02 X27.213779 Y32.237823 Z-0.125000 I0.000000 J1.872041
G02 X25.983523 Y34.619100 Z-0.125000 I4.224432 J3.690934
G03 X25.465076 Y36.567921 Z-0.125000 I-40.234551 J-9.660267
G03 X25.361173 Y36.748230 Z-0.125000 I-0.422936 J-0.123625
G03 X25.187724 Y36.792454 Z-0.125000 I-0.121976 J-0.116148
G03 X22.244433 Y35.747870 Z-0.125000 I15.668953 J-48.818809
G03 X19.483737 Y34.407286 Z-0.125000 I6.921914 J-17.767333
G03 X19.095163 Y33.891550 Z-0.125000 I0.428647 J-0.727209
G02 X18.912000 Y33.192110 Z-0.125000 I-118.170424 J30.571636
G02 X18.698443 Y32.394530 Z-0.125000 I-157.187579 J41.660640
G01 X18.482843 Y31.597500 Z-0.125000
G01 X16.763473 Y31.597500 Z-0.125000
G02 X15.069963 Y31.661720 Z-0.125000 I0.000000 J22.361314
G02 X14.897053 Y31.739190 Z-0.125000 I0.021190 J0.278996
G01 X14.897053 Y31.739500 Z-0.125000
G00 Z5.000000

(End cutting path id: path555)


(Start cutting path id: path555)
(Change tool to Cylindrical cutter)

G00 Z5.000000
G00 X12.709663 Y31.368870

G01 Z-0.125000 F100.0(Penetrate)
G03 X12.857414 Y31.505861 Z-0.125000 I-0.009421 J0.158335 F400.000000
G03 X12.985393 Y33.399370 Z-0.125000 I-13.943660 J1.893509
G01 X12.985393 Y35.413500 Z-0.125000
G01 X9.180393 Y35.471700 Z-0.125000
G01 X5.375393 Y35.529800 Z-0.125000
G01 X5.317493 Y43.135610 Z-0.125000
G01 X5.259593 Y50.741420 Z-0.125000
G01 X3.001443 Y50.680920 Z-0.125000
G01 X0.743293 Y50.620420 Z-0.125000
G01 X0.685493 Y42.631960 Z-0.125000
G01 X0.627693 Y34.643510 Z-0.125000
G01 X1.699033 Y33.280090 Z-0.125000
G03 X3.282119 Y31.699249 Z-0.125000 I7.341201 J5.768538
G03 X4.163093 Y31.349540 Z-0.125000 I1.033553 J1.319178
G03 X7.401447 Y31.205458 Z-0.125000 I3.158631 J34.528474
G03 X12.709673 Y31.368940 Z-0.125000 I-0.214342 J93.220112
G01 X12.709663 Y31.368870 Z-0.125000
G00 Z5.000000

(End cutting path id: path555)


(Start cutting path id: path555)
(Change tool to Cylindrical cutter)

G00 Z5.000000
G00 X12.103043 Y33.298150

G01 Z-0.125000 F100.0(Penetrate)
G01 X12.103043 Y34.573410 Z-0.125000 F400.000000
G01 X8.376783 Y34.573410 Z-0.125000
G02 X4.757200 Y34.730734 Z-0.125000 I-0.000000 J41.716861
G02 X4.516643 Y34.909590 Z-0.125000 I0.024781 J0.284529
G02 X4.446679 Y35.258031 Z-0.125000 I0.918908 J0.365754
G02 X4.382753 Y42.561130 Z-0.125000 I417.133840 J7.303099
G01 X4.382753 Y49.876470 Z-0.125000
G01 X2.948983 Y49.876470 Z-0.125000
G01 X1.515213 Y49.876470 Z-0.125000
G01 X1.515213 Y42.422640 Z-0.125000
G01 X1.515213 Y34.968800 Z-0.125000
G01 X2.152303 Y34.080350 Z-0.125000
G03 X2.815688 Y33.213834 Z-0.125000 I14.158998 J10.152604
G03 X3.354953 Y32.607390 Z-0.125000 I7.465843 J6.095834
G01 X3.920523 Y32.022890 Z-0.125000
G01 X8.011783 Y32.022890 Z-0.125000
G01 X12.103043 Y32.022890 Z-0.125000
G01 X12.103043 Y33.298150 Z-0.125000
G00 Z5.000000

(End cutting path id: path555)


(Start cutting path id: path555)
(Change tool to Cylindrical cutter)

G00 Z5.000000
G00 X18.311423 Y33.445770

G01 Z-0.125000 F100.0(Penetrate)
G02 X18.704077 Y34.751245 Z-0.125000 I33.296278 J-9.302892 F400.000000
G02 X18.793143 Y34.939890 Z-0.125000 I0.770382 J-0.248377
G02 X18.946071 Y35.069426 Z-0.125000 I0.287544 J-0.184429
G02 X21.918963 Y36.280070 Z-0.125000 I34.507270 J-80.481573
G01 X24.930923 Y37.442720 Z-0.125000
G01 X22.321983 Y37.548990 Z-0.125000
G02 X19.925403 Y37.881385 Z-0.125000 I0.507877 J12.467739
G02 X19.657873 Y38.186620 Z-0.125000 I0.081733 J0.341495
G02 X19.689012 Y38.711223 Z-0.125000 I1.614531 J0.167392
G02 X20.760773 Y43.075110 Z-0.125000 I115.682792 J-26.097887
G01 X21.918833 Y47.432230 Z-0.125000
G01 X22.579613 Y47.432230 Z-0.125000
G02 X23.102820 Y47.240147 Z-0.125000 I0.000000 J-0.808611
G02 X23.508373 Y46.644060 Z-0.125000 I-0.875502 J-1.031660
G02 X25.524947 Y39.534582 Z-0.125000 I-68.150458 J-23.171332
G02 X25.493673 Y37.971080 Z-0.125000 I-3.141936 J-0.719217
G03 X25.497981 Y37.630864 Z-0.125000 I0.598556 J-0.162555
G03 X25.636963 Y37.489470 Z-0.125000 I0.203228 J0.060759
G02 X25.802261 Y37.327418 Z-0.125000 I-0.077481 J-0.244364
G02 X26.559163 Y34.769370 Z-0.125000 I-32.235608 J-10.929207
G01 X27.229053 Y32.129170 Z-0.125000
G01 X28.544383 Y32.129170 Z-0.125000
G03 X29.707679 Y32.304672 Z-0.125000 I0.000000 J3.943131
G03 X29.921023 Y32.554250 Z-0.125000 I-0.090596 J0.293418
G03 X29.881825 Y33.166735 Z-0.125000 I-1.476430 J0.213007
G03 X27.556912 Y41.282295 Z-0.125000 I-514.967797 J-143.135089
G03 X25.091789 Y49.397740 Z-0.125000 I-508.505636 J-150.029992
G03 X24.864893 Y49.691320 Z-0.125000 I-0.509334 J-0.159175
G03 X24.542594 Y49.792972 Z-0.125000 I-0.358384 J-0.574525
G03 X22.377343 Y49.824060 Z-0.125000 I-1.481391 J-27.758535
G01 X20.188893 Y49.770160 Z-0.125000
G01 X17.808683 Y41.587270 Z-0.125000
G03 X15.515219 Y33.391484 Z-0.125000 I400.253087 J-116.423437
G03 X15.420103 Y32.703010 Z-0.125000 I2.684003 J-0.721614
G01 X15.412103 Y32.001640 Z-0.125000
G01 X16.678023 Y32.065340 Z-0.125000
G01 X17.943953 Y32.129040 Z-0.125000
G01 X18.311793 Y33.445640 Z-0.125000
G01 X18.311423 Y33.445770 Z-0.125000
G00 Z5.000000

(End cutting path id: path555)


(Start cutting path id: path555)
(Change tool to Cylindrical cutter)

G00 Z5.000000
G00 X19.060043 Y32.854660

G01 Z-0.125000 F100.0(Penetrate)
G01 X19.519553 Y34.415250 Z-0.125000 F400.000000
G01 X22.150023 Y35.454200 Z-0.125000
G02 X24.781467 Y36.404391 Z-0.125000 I17.341321 J-43.905936
G02 X25.033253 Y36.399700 Z-0.125000 I0.119166 J-0.363384
G02 X25.200007 Y36.228916 Z-0.125000 I-0.096514 J-0.261037
G02 X25.908813 Y33.845760 Z-0.125000 I-28.568940 J-9.794055
G03 X27.083222 Y32.018332 Z-0.125000 I3.314392 J0.838932
G03 X28.977393 Y31.382960 Z-0.125000 I1.810217 J2.255481
G03 X30.464706 Y31.529904 Z-0.125000 I-0.311807 J10.756490
G03 X30.683503 Y31.672210 Z-0.125000 I-0.054903 J0.323770
G03 X30.802597 Y32.328236 Z-0.125000 I-0.703659 J0.466564
G03 X28.435143 Y41.436070 Z-0.125000 I-163.922620 J-37.747778
G03 X25.846664 Y49.658259 Z-0.125000 I-182.310265 J-52.875708
G03 X25.437083 Y50.255000 Z-0.125000 I-1.267107 J-0.430763
G03 X24.786857 Y50.541334 Z-0.125000 I-0.821738 J-0.984600
G03 X22.287163 Y50.680080 Z-0.125000 I-2.129617 J-15.780869
G03 X19.858435 Y50.400685 Z-0.125000 I0.311408 J-13.402957
G03 X19.456483 Y50.089020 Z-0.125000 I0.118590 J-0.567974
G03 X15.539210 Y39.848162 Z-0.125000 I53.406636 J-26.298426
G03 X14.529413 Y32.499650 Z-0.125000 I26.233450 J-7.348512
G03 X14.648772 Y31.690345 Z-0.125000 I2.803394 J0.000000
G03 X14.846223 Y31.448960 Z-0.125000 I0.390054 J0.117611
G03 X15.180863 Y31.350538 Z-0.125000 I0.402302 J0.749745
G03 X16.881783 Y31.286540 Z-0.125000 I1.611933 J20.206045
G01 X18.600523 Y31.294540 Z-0.125000
G01 X19.060043 Y32.855130 Z-0.125000
G01 X19.060043 Y32.854660 Z-0.125000
G00 Z5.000000

(End cutting path id: path555)


(Start cutting path id: path555)
(Change tool to Cylindrical cutter)

G00 Z5.000000
G00 X20.705653 Y38.807970

G01 Z-0.125000 F100.0(Penetrate)
G02 X20.853962 Y40.088542 Z-0.125000 I5.602699 J0.000000 F400.000000
G02 X22.169053 Y45.041130 Z-0.125000 I86.185771 J-20.234541
G02 X22.585872 Y45.231928 Z-0.125000 I0.291704 J-0.086568
G02 X23.111413 Y44.616040 Z-0.125000 I-0.390272 J-0.865189
G02 X24.371084 Y39.667362 Z-0.125000 I-149.006032 J-40.563701
G02 X24.455503 Y38.945140 Z-0.125000 I-3.047176 J-0.722222
G02 X24.221416 Y38.633179 Z-0.125000 I-0.324915 J0.000000
G02 X22.580573 Y38.399170 Z-0.125000 I-1.640843 J5.635706
G02 X20.888025 Y38.581549 Z-0.125000 I0.000000 J7.944929
G02 X20.705653 Y38.807970 Z-0.125000 I0.049369 J0.226421
G01 X20.705653 Y38.807970 Z-0.125000
G00 Z5.000000

(End cutting path id: path555)


(Start cutting path id: path555)
(Change tool to Cylindrical cutter)

G00 Z5.000000
G00 X23.795743 Y39.196200

G01 Z-0.125000 F100.0(Penetrate)
G03 X23.779071 Y39.353553 Z-0.125000 I-0.677926 J0.007730 F400.000000
G03 X23.206463 Y41.799850 Z-0.125000 I-165.423261 J-37.430656
G01 X22.615213 Y44.244090 Z-0.125000
G01 X21.996983 Y41.906120 Z-0.125000
G03 X21.406841 Y39.564205 Z-0.125000 I100.149770 J-26.482195
G03 X21.373073 Y39.302470 Z-0.125000 I1.202776 J-0.288221
G03 X21.488582 Y39.155491 Z-0.125000 I0.147129 J-0.003251
G03 X22.580573 Y39.036790 Z-0.125000 I1.091991 J4.963562
G03 X23.720220 Y39.111197 Z-0.125000 I0.000000 J8.764822
G03 X23.795743 Y39.196200 Z-0.125000 I-0.011289 J0.086082
G01 X23.795743 Y39.196200 Z-0.125000
G00 Z5.000000

(End cutting path id: path555)


(Start cutting path id: path555)
(Change tool to Cylindrical cutter)

G00 Z5.000000
G00 X24.690613 Y39.621290

G01 Z-0.125000 F100.0(Penetrate)
G02 X24.315635 Y41.057922 Z-0.125000 I134.659796 J35.915081 F400.000000
G02 X23.576323 Y43.985400 Z-0.125000 I558.509009 J142.604188
G03 X22.757848 Y46.760425 Z-0.125000 I-33.374736 J-8.335437
G03 X22.602333 Y46.839450 Z-0.125000 I-0.118362 J-0.040393
G03 X21.397166 Y45.599855 Z-0.125000 I0.537671 J-1.728384
G03 X20.279853 Y38.558570 Z-0.125000 I29.638875 J-8.312394
G03 X20.443925 Y38.358790 Z-0.125000 I0.193933 J-0.007993
G03 X22.668873 Y38.186620 Z-0.125000 I2.224948 J14.290386
G01 X25.073253 Y38.186620 Z-0.125000
G01 X24.690613 Y39.621290 Z-0.125000
G00 Z5.000000

(End cutting path id: path555)


(Start cutting path id: path555)
(Change tool to Cylindrical cutter)

G00 Z5.000000
G00 X36.697683 Y54.583110

G01 Z-0.125000 F100.0(Penetrate)
G02 X34.504763 Y54.847233 Z-0.125000 I2.509221 J30.068762 F400.000000
G02 X32.506663 Y55.244300 Z-0.125000 I4.000297 J25.355987
G02 X30.683181 Y55.869370 Z-0.125000 I2.389777 J9.943880
G02 X30.454713 Y56.172032 Z-0.125000 I0.163057 J0.360647
G02 X30.488295 Y56.698491 Z-0.125000 I1.247906 J0.184699
G02 X31.863383 Y61.360764 Z-0.125000 I187.704751 J-52.827620
G02 X33.355296 Y65.990187 Z-0.125000 I186.110008 J-57.422121
G02 X33.618253 Y66.425269 Z-0.125000 I1.107082 J-0.372099
G02 X33.946124 Y66.558850 Z-0.125000 I0.313151 J-0.299455
G02 X36.035983 Y66.343079 Z-0.125000 I-0.518394 J-15.249536
G03 X42.782838 Y66.284277 Z-0.125000 I3.552126 J20.474078
G03 X48.375650 Y68.262986 Z-0.125000 I-2.469961 J15.874712
G02 X49.699939 Y68.922212 Z-0.125000 I5.815828 J-10.023382
G02 X50.027410 Y68.957473 Z-0.125000 I0.222655 J-0.529558
G02 X50.315397 Y68.785423 Z-0.125000 I-0.088037 J-0.474412
G02 X53.700596 Y64.477084 Z-0.125000 I-189.659451 J-152.505552
G02 X56.985284 Y60.097543 Z-0.125000 I-193.568174 J-148.599114
G02 X57.101300 Y59.742881 Z-0.125000 I-0.484097 J-0.354662
G02 X56.186961 Y58.333374 Z-0.125000 I-1.543589 J0.000000
G02 X47.163220 Y55.306200 Z-0.125000 I-20.194963 J45.236346
G02 X42.293970 Y54.454141 Z-0.125000 I-10.284277 J44.432275
G02 X39.344633 Y54.371270 Z-0.125000 I-1.929135 J16.132811
G02 X38.903742 Y54.402805 Z-0.125000 I1.649649 J26.161498
G02 X36.697683 Y54.583110 Z-0.125000 I51.464899 J643.267042
G01 X36.697683 Y54.583110 Z-0.125000
G00 Z5.000000

(End cutting path id: path555)


(Start cutting path id: path555)
(Change tool to Cylindrical cutter)

G00 Z5.000000
G00 X36.645863 Y55.394970

G01 Z-0.125000 F100.0(Penetrate)
G02 X32.149110 Y56.095215 Z-0.125000 I5.596284 J50.726063 F400.000000
G02 X31.461843 Y56.440886 Z-0.125000 I0.288402 J1.429458
G02 X31.400802 Y56.649777 Z-0.125000 I0.138485 J0.153831
G02 X32.643102 Y60.922648 Z-0.125000 I156.669129 J-43.233142
G02 X33.993203 Y65.138963 Z-0.125000 I159.635461 J-48.792376
G02 X34.239613 Y65.529000 Z-0.125000 I0.919114 J-0.307805
G02 X34.531842 Y65.641198 Z-0.125000 I0.278626 J-0.289036
G02 X36.256523 Y65.460620 Z-0.125000 I-0.417484 J-12.313725
G03 X40.248071 Y65.193224 Z-0.125000 I3.230432 J18.296662
G03 X44.369273 Y65.793236 Z-0.125000 I-0.824865 J20.118937
G03 X46.054237 Y66.314514 Z-0.125000 I-4.179274 J16.492817
G03 X47.969890 Y67.115267 Z-0.125000 I-8.126579 J22.133133
G02 X49.819025 Y67.794986 Z-0.125000 I4.789057 J-10.173249
G02 X50.153840 Y67.706867 Z-0.125000 I0.090792 J-0.335167
G02 X55.729528 Y61.202200 Z-0.125000 I-36.358069 J-36.807537
G02 X55.910840 Y59.740137 Z-0.125000 I-1.239963 J-0.896043
G02 X55.222183 Y59.012244 Z-0.125000 I-1.258974 J0.501397
G02 X49.601590 Y56.813022 Z-0.125000 I-20.690918 J44.598234
G02 X42.945062 Y55.392266 Z-0.125000 I-10.319477 J32.044869
G02 X36.645863 Y55.394970 Z-0.125000 I-3.137297 J28.663140
G01 X36.645863 Y55.394970 Z-0.125000
G00 Z5.000000

(End cutting path id: path555)


(Start cutting path id: path555)
(Change tool to Cylindrical cutter)

G00 Z5.000000
G00 X43.976813 Y56.150353

G01 Z-0.125000 F100.0(Penetrate)
G03 X48.578188 Y57.165823 Z-0.125000 I-4.636433 J31.941748 F400.000000
G03 X52.779520 Y58.779763 Z-0.125000 I-8.427304 J28.212879
G01 X55.291190 Y59.972256 Z-0.125000
G01 X52.531110 Y63.613282 Z-0.125000
G01 X49.771020 Y67.254309 Z-0.125000
G01 X47.929120 Y66.422615 Z-0.125000
G02 X44.038312 Y65.157920 Z-0.125000 I-7.678127 J17.004253
G02 X39.565213 Y64.688700 Z-0.125000 I-4.577236 J22.079281
G02 X36.490421 Y64.771830 Z-0.125000 I-0.225433 J48.567973
G02 X35.607183 Y64.921234 Z-0.125000 I0.241838 J4.115129
G03 X34.747717 Y65.126263 Z-0.125000 I-2.854278 J-10.060985
G03 X34.670103 Y65.103317 Z-0.125000 I-0.016736 J-0.086129
G03 X32.980682 Y62.357806 Z-0.125000 I4.480168 J-4.649361
G03 X32.175793 Y57.019814 Z-0.125000 I17.298218 J-5.337992
G03 X32.353768 Y56.796809 Z-0.125000 I0.228701 J0.000000
G03 X36.807973 Y55.966136 Z-0.125000 I12.792828 J56.239811
G03 X39.748209 Y55.790403 Z-0.125000 I2.496635 J17.087109
G03 X43.976813 Y56.150353 Z-0.125000 I-0.920891 J35.836707
G01 X43.976813 Y56.150353 Z-0.125000
G00 Z5.000000

(End cutting path id: path555)


(Start cutting path id: path555)
(Change tool to Cylindrical cutter)

G00 Z5.000000
G00 X45.788880 Y55.602787

G01 Z-0.125000 F100.0(Penetrate)
G03 X49.911578 Y56.691953 Z-0.125000 I-6.384344 J32.513119 F400.000000
G03 X53.792600 Y58.278943 Z-0.125000 I-10.159165 J30.383540
G03 X55.758202 Y59.292512 Z-0.125000 I-21.594646 J44.290956
G03 X56.080791 Y59.897278 Z-0.125000 I-0.297989 J0.547371
G03 X55.777591 Y60.686453 Z-0.125000 I-1.552327 J-0.143569
G03 X53.261250 Y64.024204 Z-0.125000 I-364.253681 J-271.994630
G03 X50.005059 Y68.191972 Z-0.125000 I-166.622765 J-126.823025
G03 X49.874010 Y68.248639 Z-0.125000 I-0.119054 J-0.095460
G03 X49.718692 Y68.209773 Z-0.125000 I0.037704 J-0.480460
G03 X47.616370 Y67.261891 Z-0.125000 I40.149848 J-91.854228
G02 X44.146431 Y66.026085 Z-0.125000 I-8.363957 J17.995193
G02 X40.557823 Y65.465590 Z-0.125000 I-4.758599 J18.698869
G02 X38.314502 Y65.489078 Z-0.125000 I-0.956868 J15.751220
G02 X34.810943 Y65.935664 Z-0.125000 I3.188329 J38.979426
G01 X34.027103 Y66.071789 Z-0.125000
G01 X32.535703 Y61.351469 Z-0.125000
G03 X31.133830 Y56.634412 Z-0.125000 I136.793526 J-43.220840
G03 X31.147983 Y56.370777 Z-0.125000 I0.397821 J-0.110840
G03 X31.520213 Y56.049956 Z-0.125000 I0.493909 J0.196705
G03 X36.153263 Y55.193950 Z-0.125000 I11.185257 J47.573174
G03 X40.613566 Y54.988471 Z-0.125000 I3.388772 J25.047246
G03 X45.788880 Y55.602787 Z-0.125000 I-1.459931 J34.406111
G01 X45.788880 Y55.602787 Z-0.125000
G00 Z5.000000

(End cutting path id: path555)


(Start cutting path id: path555)
(Change tool to Cylindrical cutter)

G00 Z5.000000
G00 X58.688520 Y59.919120

G01 Z-0.125000 F100.0(Penetrate)
G02 X53.905336 Y66.365644 Z-0.125000 I238.155829 J181.704343 F400.000000
G02 X53.795250 Y66.702091 Z-0.125000 I0.472427 J0.340812
G02 X53.911831 Y66.998469 Z-0.125000 I0.423939 J0.004360
G02 X55.171230 Y68.151329 Z-0.125000 I8.883490 J-8.440115
G03 X59.541825 Y73.087992 Z-0.125000 I-11.807565 J14.856687
G03 X61.421750 Y78.345043 Z-0.125000 I-11.600036 J7.112838
G02 X61.650116 Y79.365592 Z-0.125000 I6.220233 J-0.856062
G02 X61.816530 Y79.605704 Z-0.125000 I0.467847 J-0.146526
G02 X62.212611 Y79.737501 Z-0.125000 I0.383757 J-0.492225
G02 X67.758001 Y79.553535 Z-0.125000 I-4.083285 J-206.755910
G02 X73.297168 Y79.220775 Z-0.125000 I-9.624004 J-206.471724
G02 X73.672570 Y79.053072 Z-0.125000 I-0.044383 J-0.603370
G02 X73.795060 Y78.760756 Z-0.125000 I-0.277696 J-0.288186
G02 X73.652870 Y77.146574 Z-0.125000 I-10.458884 J0.107950
G02 X69.822505 Y67.060148 Z-0.125000 I-27.108936 J4.524226
G02 X62.032560 Y58.632399 Z-0.125000 I-26.338662 J16.531299
G02 X60.656336 Y58.444211 Z-0.125000 I-0.859042 J1.155923
G02 X58.688480 Y59.919120 Z-0.125000 I1.621133 J4.213186
G01 X58.688520 Y59.919120 Z-0.125000
G00 Z5.000000

(End cutting path id: path555)


(Start cutting path id: path555)
(Change tool to Cylindrical cutter)

G00 Z5.000000
G00 X59.582460 Y60.124753

G01 Z-0.125000 F100.0(Penetrate)
G03 X58.753183 Y61.231845 Z-0.125000 I-249.311110 J-185.884684 F400.000000
G03 X56.825580 Y63.788186 Z-0.125000 I-1327.376105 J-998.899605
G02 X54.959340 Y66.364086 Z-0.125000 I63.232846 J47.776214
G02 X54.895500 Y66.567964 Z-0.125000 I0.293632 J0.203878
G02 X54.973426 Y66.757561 Z-0.125000 I0.269611 J-0.000000
G02 X56.414540 Y68.103730 Z-0.125000 I17.741439 J-17.548272
G03 X59.913221 Y72.170353 Z-0.125000 I-11.841272 J13.725866
G03 X62.016790 Y77.000708 Z-0.125000 I-14.795974 J9.316711
G02 X62.658451 Y78.705908 Z-0.125000 I8.782746 J-2.331591
G02 X62.952890 Y78.888558 Z-0.125000 I0.294439 J-0.145999
G02 X72.191419 Y78.651995 Z-0.125000 I0.000000 J-180.515419
G02 X72.820750 Y78.382872 Z-0.125000 I-0.050677 J-0.988894
G02 X72.892630 Y78.192671 Z-0.125000 I-0.159756 J-0.169056
G02 X72.647780 Y76.488668 Z-0.125000 I-16.592627 J1.514615
G02 X70.291581 Y69.664432 Z-0.125000 I-25.733636 J5.066155
G02 X65.940490 Y63.301597 Z-0.125000 I-26.649889 J13.554848
G02 X61.931250 Y59.420362 Z-0.125000 I-28.701411 J25.636645
G02 X60.817130 Y59.015813 Z-0.125000 I-1.114120 J1.331858
G02 X60.475031 Y59.146890 Z-0.125000 I-0.000000 J0.511963
G02 X59.582460 Y60.124753 Z-0.125000 I4.468001 J4.974578
G01 X59.582460 Y60.124753 Z-0.125000
G00 Z5.000000

(End cutting path id: path555)


(Start cutting path id: path555)
(Change tool to Cylindrical cutter)

G00 Z5.000000
G00 X62.775470 Y61.128817

G01 Z-0.125000 F100.0(Penetrate)
G03 X65.601231 Y63.860645 Z-0.125000 I-17.174898 J20.592830 F400.000000
G03 X68.089570 Y67.079535 Z-0.125000 I-21.430902 J19.138237
G03 X70.656374 Y71.946536 Z-0.125000 I-22.512701 J14.983307
G03 X72.180540 Y77.221532 Z-0.125000 I-24.973801 J10.073669
G01 X72.302040 Y77.892474 Z-0.125000
G01 X70.050730 Y78.012635 Z-0.125000
G03 X63.035333 Y78.187823 Z-0.125000 I-6.595962 J-123.581574
G03 X62.836370 Y77.988185 Z-0.125000 I0.000677 J-0.199638
G02 X62.602622 Y76.497238 Z-0.125000 I-4.871826 J-0.000000
G02 X61.389620 Y73.487578 Z-0.125000 I-21.442869 J6.892979
G02 X59.563188 Y70.535463 Z-0.125000 I-15.800469 J7.734474
G02 X57.101620 Y67.880478 Z-0.125000 I-15.200472 J11.624500
G01 X55.536710 Y66.484400 Z-0.125000
G01 X56.263860 Y65.560764 Z-0.125000
G02 X56.983372 Y64.631255 Z-0.125000 I-56.368518 J-44.376806
G02 X58.863240 Y62.145283 Z-0.125000 I-401.398313 J-305.487358
G03 X60.761599 Y59.705770 Z-0.125000 I72.984338 J54.835947
G03 X60.870970 Y59.653438 Z-0.125000 I0.109371 J0.088123
G03 X60.991493 Y59.694660 Z-0.125000 I0.000000 J0.196804
G03 X62.775470 Y61.128814 Z-0.125000 I-38.894231 J50.208040
G01 X62.775470 Y61.128817 Z-0.125000
G00 Z5.000000

(End cutting path id: path555)


(Start cutting path id: path555)
(Change tool to Cylindrical cutter)

G00 Z5.000000
G00 X65.255140 Y62.336889

G01 Z-0.125000 F100.0(Penetrate)
G03 X70.118736 Y68.864178 Z-0.125000 I-20.545815 J20.384660 F400.000000
G03 X72.856990 Y76.275948 Z-0.125000 I-23.941431 J13.056789
G03 X72.285392 Y77.873056 Z-0.125000 I-1.581859 J0.334699
G03 X69.619200 Y78.867035 Z-0.125000 I-2.842642 J-3.552128
G02 X66.035643 Y79.022701 Z-0.125000 I15.067441 J388.191388
G02 X64.159850 Y79.129441 Z-0.125000 I5.116698 J106.453370
G01 X62.284920 Y79.252722 Z-0.125000
G01 X61.799400 Y77.283594 Z-0.125000
G02 X59.541759 Y71.961880 Z-0.125000 I-17.672123 J4.357340
G02 X55.947710 Y67.964419 Z-0.125000 I-13.329247 J8.369694
G03 X54.585273 Y66.744891 Z-0.125000 I8.950132 J-11.369755
G03 X54.543430 Y66.537672 Z-0.125000 I0.137837 J-0.135667
G03 X54.670381 Y66.309736 Z-0.125000 I0.941630 J0.375126
G03 X57.654130 Y62.335452 Z-0.125000 I295.390039 J218.661030
G01 X60.667410 Y58.377864 Z-0.125000
G01 X61.992660 Y59.381106 Z-0.125000
G03 X63.269689 Y60.439484 Z-0.125000 I-11.361842 J15.008705
G03 X65.255140 Y62.336889 Z-0.125000 I-34.649352 J38.244697
G01 X65.255140 Y62.336889 Z-0.125000
G00 Z5.000000

(End cutting path id: path555)


(Start cutting path id: path555)
(Change tool to Cylindrical cutter)

G00 Z5.000000
G00 X68.967960 Y80.680191

G01 Z-0.125000 F100.0(Penetrate)
G02 X66.208146 Y80.893130 Z-0.125000 I1.773046 J40.970675 F400.000000
G02 X65.966650 Y81.013985 Z-0.125000 I0.043142 J0.387916
G02 X65.839880 Y81.260524 Z-0.125000 I0.367553 J0.344858
G02 X65.515580 Y83.281824 Z-0.125000 I26.957010 J5.361678
G03 X64.011189 Y88.607811 Z-0.125000 I-17.969709 J-2.200306
G03 X61.172520 Y92.783157 Z-0.125000 I-13.703375 J-6.263809
G02 X60.087275 Y94.083586 Z-0.125000 I8.732855 J8.390860
G02 X59.968840 Y94.449875 Z-0.125000 I0.507199 J0.366289
G02 X60.143955 Y94.924675 Z-0.125000 I0.731235 J-0.000000
G02 X63.565371 Y98.785295 Z-0.125000 I106.160366 J-90.636630
G02 X67.124242 Y102.514435 Z-0.125000 I103.086965 J-94.817348
G02 X67.610230 Y102.757715 Z-0.125000 I0.602532 J-0.596590
G02 X68.013999 Y102.652106 Z-0.125000 I0.074772 J-0.538791
G02 X69.429260 Y101.376187 Z-0.125000 I-6.858359 J-9.030219
G02 X75.016728 Y92.949990 Z-0.125000 I-22.128033 J-20.738890
G02 X77.502120 Y83.204420 Z-0.125000 I-27.426106 J-12.184128
G02 X76.778226 Y81.361922 Z-0.125000 I-2.241638 J-0.182743
G02 X74.567380 Y80.520784 Z-0.125000 I-2.167053 J2.369818
G02 X71.770442 Y80.579665 Z-0.125000 I2.572266 J188.645898
G02 X68.967960 Y80.680191 Z-0.125000 I5.398278 J189.608209
G01 X68.967960 Y80.680191 Z-0.125000
G00 Z5.000000

(End cutting path id: path555)


(Start cutting path id: path555)
(Change tool to Cylindrical cutter)

G00 Z5.000000
G00 X69.021860 Y81.530753

G01 Z-0.125000 F100.0(Penetrate)
G02 X67.032020 Y82.244442 Z-0.125000 I0.192087 J3.666344 F400.000000
G02 X66.387640 Y83.477363 Z-0.125000 I0.944935 J1.278717
G03 X65.446066 Y87.699267 Z-0.125000 I-11.410077 J-0.328742
G03 X62.372310 Y92.714455 Z-0.125000 I-19.358655 J-8.415186
G02 X61.159362 Y94.350797 Z-0.125000 I15.192451 J12.529212
G02 X61.113340 Y94.610561 Z-0.125000 I0.275176 J0.182712
G02 X61.304117 Y94.980823 Z-0.125000 I0.850928 J-0.204160
G02 X64.292737 Y98.334677 Z-0.125000 I143.523116 J-124.884986
G02 X67.374489 Y101.631479 Z-0.125000 I138.746371 J-126.607161
G02 X67.614440 Y101.734991 Z-0.125000 I0.242452 J-0.232157
G02 X67.834829 Y101.652641 Z-0.125000 I0.002570 J-0.329206
G02 X69.217500 Y100.320581 Z-0.125000 I-14.516313 J-16.451479
G02 X74.497380 Y92.313649 Z-0.125000 I-19.702359 J-18.736281
G02 X76.550800 Y83.245683 Z-0.125000 I-23.476572 J-10.082696
G01 X76.622600 Y81.439070 Z-0.125000
G01 X73.975650 Y81.424490 Z-0.125000
G02 X71.329527 Y81.445588 Z-0.125000 I-0.539849 J98.241067
G02 X69.021860 Y81.530761 Z-0.125000 I1.602218 J74.714805
G01 X69.021860 Y81.530753 Z-0.125000
G00 Z5.000000

(End cutting path id: path555)


(Start cutting path id: path555)
(Change tool to Cylindrical cutter)

G00 Z5.000000
G00 X76.069850 Y82.554919

G01 Z-0.125000 F100.0(Penetrate)
G03 X75.427448 Y87.467216 Z-0.125000 I-19.362753 J-0.033997 F400.000000
G03 X73.205580 Y93.393057 Z-0.125000 I-30.521101 J-8.064290
G03 X68.734764 Y100.573567 Z-0.125000 I-38.841661 J-19.201973
G03 X67.514250 Y100.807676 Z-0.125000 I-0.741947 J-0.569506
G03 X67.281258 Y100.620661 Z-0.125000 I0.550769 J-0.924815
G03 X64.475450 Y97.579575 Z-0.125000 I150.325394 J-141.510188
G01 X61.696210 Y94.506052 Z-0.125000
G01 X62.567750 Y93.498672 Z-0.125000
G02 X66.018182 Y87.967997 Z-0.125000 I-15.921533 J-13.774646
G02 X67.027390 Y83.019244 Z-0.125000 I-11.628749 J-4.948753
G01 X67.027390 Y82.182970 Z-0.125000
G01 X68.075140 Y82.157860 Z-0.125000
G02 X71.855948 Y82.020944 Z-0.125000 I-3.702484 J-154.511143
G02 X75.574850 Y81.794321 Z-0.125000 I-7.259100 J-149.749319
G03 X75.891230 Y81.951182 Z-0.125000 I0.025420 J0.346220
G03 X76.069850 Y82.554917 Z-0.125000 I-0.924892 J0.601928
G01 X76.069850 Y82.554919 Z-0.125000
G00 Z5.000000

(End cutting path id: path555)


(Start cutting path id: path555)
(Change tool to Cylindrical cutter)

G00 Z5.000000
G00 X76.878880 Y83.138200

G01 Z-0.125000 F100.0(Penetrate)
G03 X75.420641 Y90.358277 Z-0.125000 I-27.134135 J-1.722982 F400.000000
G03 X71.992490 Y97.167231 Z-0.125000 I-27.501706 J-9.578999
G03 X68.297668 Y101.927720 Z-0.125000 I-39.979731 J-27.215904
G03 X67.636850 Y102.109772 Z-0.125000 I-0.469464 J-0.413719
G03 X67.445132 Y101.989758 Z-0.125000 I0.140630 J-0.437791
G03 X63.925390 Y98.228123 Z-0.125000 I172.408334 J-164.849077
G01 X60.436710 Y94.418030 Z-0.125000
G01 X61.481600 Y93.348389 Z-0.125000
G02 X65.011414 Y88.124473 Z-0.125000 I-12.633168 J-12.340777
G02 X66.143520 Y82.760793 Z-0.125000 I-12.219496 J-5.380471
G03 X66.262848 Y81.616125 Z-0.125000 I5.618100 J0.007116
G03 X66.420790 Y81.437081 Z-0.125000 I0.236643 J0.049568
G03 X66.863573 Y81.351343 Z-0.125000 I0.525010 J1.525133
G03 X76.159820 Y80.939958 Z-0.125000 I35.000962 J685.690452
G01 X77.020520 Y80.907708 Z-0.125000
G01 X76.878880 Y83.138200 Z-0.125000
G00 Z5.000000

(End cutting path id: path555)


(Start cutting path id: path555)
(Change tool to Cylindrical cutter)

G00 Z5.000000
G00 X64.392100 Y102.401181

G01 Z-0.125000 F100.0(Penetrate)
G03 X66.994600 Y105.265074 Z-0.125000 I-296.553391 J272.100791 F400.000000
G03 X67.337625 Y106.005666 Z-0.125000 I-1.029590 J0.926619
G03 X67.065936 Y106.648443 Z-0.125000 I-0.678614 J0.091971
G03 X65.152460 Y108.011482 Z-0.125000 I-40.290605 J-54.536579
G03 X59.404710 Y111.077821 Z-0.125000 I-16.560245 J-24.121470
G03 X52.926560 Y112.873679 Z-0.125000 I-11.513762 J-28.951132
G03 X45.482483 Y113.494070 Z-0.125000 I-7.631128 J-46.595012
G03 X44.612493 Y112.906609 Z-0.125000 I-0.003694 J-0.932459
G03 X44.575717 Y112.590585 Z-0.125000 I0.567855 J-0.226234
G03 X45.337973 Y108.021026 Z-0.125000 I128.263278 J19.047471
G01 X46.185950 Y103.443038 Z-0.125000
G01 X49.051810 Y103.362038 Z-0.125000
G02 X51.888996 Y103.110770 Z-0.125000 I-0.670105 J-23.710160
G02 X54.013180 Y102.620278 Z-0.125000 I-2.054747 J-13.743391
G02 X57.634088 Y101.125775 Z-0.125000 I-6.858166 J-21.749738
G02 X60.189420 Y99.424992 Z-0.125000 I-6.434739 J-12.437851
G03 X60.966229 Y98.788672 Z-0.125000 I29.923634 J35.737941
G03 X61.006900 Y98.769937 Z-0.125000 I0.057983 J0.072361
G01 X61.045324 Y98.782474 Z-0.125000
G03 X64.392100 Y102.401179 Z-0.125000 I-455.767837 J424.875984
G01 X64.392100 Y102.401181 Z-0.125000
G00 Z5.000000

(End cutting path id: path555)


(Start cutting path id: path555)
(Change tool to Cylindrical cutter)

G00 Z5.000000
G00 X64.435580 Y103.703713

G01 Z-0.125000 F100.0(Penetrate)
G03 X66.302735 Y105.810887 Z-0.125000 I-46.199803 J42.818200 F400.000000
G03 X66.365650 Y105.982517 Z-0.125000 I-0.202641 J0.171630
G03 X66.155469 Y106.385817 Z-0.125000 I-0.492022 J0.000000
G03 X62.420460 Y108.739560 Z-0.125000 I-26.559992 J-38.006112
G03 X57.732489 Y110.833841 Z-0.125000 I-13.385241 J-23.668312
G03 X52.276070 Y112.164233 Z-0.125000 I-10.405926 J-30.823883
G03 X46.433468 Y112.675958 Z-0.125000 I-6.829874 J-44.370100
G03 X45.504850 Y112.313176 Z-0.125000 I-0.028527 J-1.296866
G03 X45.472674 Y112.216856 Z-0.125000 I0.075954 J-0.078907
G03 X46.148880 Y108.313442 Z-0.125000 I164.843164 J26.546243
G01 X46.875920 Y104.393684 Z-0.125000
G01 X49.286510 Y104.243386 Z-0.125000
G02 X55.327855 Y103.066751 Z-0.125000 I-1.476258 J-23.677467
G02 X59.858550 Y100.711237 Z-0.125000 I-5.174642 J-15.488149
G01 X60.961440 Y99.896165 Z-0.125000
G01 X61.733470 Y100.758689 Z-0.125000
G02 X62.510775 Y101.616412 Z-0.125000 I70.050808 J-62.701916
G02 X64.435580 Y103.703713 Z-0.125000 I416.820998 J-382.440492
G01 X64.435580 Y103.703713 Z-0.125000
G00 Z5.000000

(End cutting path id: path555)


(Start cutting path id: path555)
(Change tool to Cylindrical cutter)

G00 Z5.000000
G00 X60.699500 Y99.459292

G01 Z-0.125000 F100.0(Penetrate)
G02 X60.226928 Y99.733176 Z-0.125000 I3.930060 J7.325750 F400.000000
G02 X58.977690 Y100.534263 Z-0.125000 I32.488265 J52.037714
G03 X56.193636 Y102.064043 Z-0.125000 I-10.950391 J-16.630418
G03 X53.241150 Y103.113885 Z-0.125000 I-7.946232 J-17.670731
G03 X51.902716 Y103.369612 Z-0.125000 I-2.444637 J-9.164384
